%
(Tormach Battery End)
(T2  D=0.25 CR=0. - ZMIN=-0.4331 - flat end mill)
G90 G54 G64 G50 G17 G40 G80 G94 G91.1 G49
G20 (Inch)
G30

N10(2D Adaptive1)
T2 G43 H2 M6
S9000 M3 M8
G54
G0 X1.4663 Y3.8464
G0 Z0.5906
G0 Z0.1969
G0 Z0.0984
G3 X1.4868 Y3.6499 Z0.0904 I0.0809 J-0.0909 F10.9
G3 X1.6664 Y3.7318 Z0.0823 I0.0603 J0.1055
G3 X1.5318 Y3.8758 Z0.0743 I-0.1191 J0.0236
G3 X1.4382 Y3.7025 Z0.0662 I0.0155 J-0.1203
G3 X1.632 Y3.669 Z0.0582 I0.109 J0.053
G3 X1.6021 Y3.8632 Z0.0501 I-0.0848 J0.0863
G3 X1.4278 Y3.7732 Z0.0421 I-0.0548 J-0.1077
G3 X1.5685 Y3.6367 Z0.034 I0.1194 J-0.0176
G3 X1.653 Y3.8133 Z0.0259 I-0.0213 J0.1187
G3 X1.4588 Y3.8372 Z0.0179 I-0.1056 J-0.0579
G3 X1.498 Y3.6458 Z0.0098 I0.0884 J-0.0816
G3 X1.6668 Y3.7437 Z0.0018 I0.0492 J0.1096
G3 X1.5204 Y3.8724 Z-0.0063 I-0.1195 J0.0117
G3 X1.4451 Y3.6929 Z-0.0143 I0.0269 J-0.1168
G3 X1.639 Y3.6786 Z-0.0224 I0.1021 J0.0626
G3 X1.5908 Y3.8668 Z-0.0304 I-0.0917 J0.0768
G3 X1.428 Y3.7613 Z-0.0385 I-0.0435 J-0.1113
G3 X1.5796 Y3.6407 Z-0.0465 I0.1192 J-0.0058
G3 X1.6456 Y3.8226 Z-0.0546 I-0.0324 J0.1147
G3 X1.4524 Y3.8273 Z-0.0626 I-0.0983 J-0.0671
G3 X1.5094 Y3.6428 Z-0.0707 I0.0948 J-0.0718
G3 X1.6659 Y3.7554 Z-0.0787 I0.0378 J0.1126
G3 X1.4284 I-0.1188 J0.
G3 X1.6659 I0.1188 J0.
G1 X1.6661 Y3.7644 F32.8
G1 X1.6722 Y3.7998
G1 X1.6738 Y3.8039
G1 X1.6754 Y3.8096
G1 X1.6765 Y3.8154
G1 X1.677 Y3.8213
G1 X1.6769 Y3.8274
G1 X1.6764 Y3.834
G1 X1.6753 Y3.8409
G1 X1.6735 Y3.8482
G1 X1.671 Y3.8558
G1 X1.6677 Y3.8635
G1 X1.6636 Y3.8714
G1 X1.6586 Y3.8792
G1 X1.6527 Y3.887
G1 X1.646 Y3.8946
G1 X1.6384 Y3.9019
G1 X1.63 Y3.9089
G1 X1.6207 Y3.9153
G1 X1.6106 Y3.9211
G1 X1.5997 Y3.9263
G1 X1.5882 Y3.9307
G1 X1.5761 Y3.9342
G1 X1.5635 Y3.9368
G1 X1.5505 Y3.9385
G1 X1.5372 Y3.939
G1 X1.5236 Y3.9385
G1 X1.51 Y3.9369
G1 X1.4964 Y3.9342
G1 X1.4828 Y3.9303
G1 X1.4695 Y3.9254
G1 X1.4565 Y3.9193
G1 X1.444 Y3.9121
G1 X1.432 Y3.9039
G1 X1.4206 Y3.8947
G1 X1.4099 Y3.8846
G1 X1.4001 Y3.8735
G1 X1.3911 Y3.8617
G1 X1.3831 Y3.8492
G1 X1.376 Y3.836
G1 X1.3701 Y3.8223
G1 X1.3652 Y3.808
G1 X1.3615 Y3.7935
G1 X1.359 Y3.7786
G1 X1.3577 Y3.7635
G1 X1.3576 Y3.7484
G1 X1.3587 Y3.7333
G1 X1.361 Y3.7183
G1 X1.3645 Y3.7036
G1 X1.3692 Y3.6891
G1 X1.3751 Y3.6751
G1 X1.382 Y3.6616
G1 X1.39 Y3.6486
G1 X1.3991 Y3.6364
G1 X1.4091 Y3.6249
G1 X1.4199 Y3.6142
G1 X1.4317 Y3.6045
G1 X1.4441 Y3.5957
G1 X1.4573 Y3.5879
G1 X1.471 Y3.5813
G1 X1.4852 Y3.5757
G1 X1.4998 Y3.5713
G1 X1.5147 Y3.5681
G1 X1.5298 Y3.5661
G1 X1.5451 Y3.5653
G1 X1.5603 Y3.5657
G1 X1.5755 Y3.5674
G1 X1.5905 Y3.5703
G1 X1.6052 Y3.5743
G1 X1.6196 Y3.5796
G1 X1.6334 Y3.5859
G1 X1.6467 Y3.5934
G1 X1.6594 Y3.6019
G1 X1.6714 Y3.6114
G1 X1.6825 Y3.6219
G1 X1.6928 Y3.6331
G1 X1.7022 Y3.6452
G1 X1.7107 Y3.6584
G1 X1.7262 Y3.6868
G1 X1.7379 Y3.7132
G1 X1.7455 Y3.7349
G1 X1.7506 Y3.7545
G1 X1.7539 Y3.7729
G1 X1.7556 Y3.7908
G1 X1.7559 Y3.8081
G1 X1.7548 Y3.8249
G1 X1.7524 Y3.8413
G1 X1.7487 Y3.8574
G1 X1.7438 Y3.8731
G1 X1.7375 Y3.8884
G1 X1.7301 Y3.9032
G1 X1.7214 Y3.9174
G1 X1.7115 Y3.931
G1 X1.7005 Y3.9439
G1 X1.6883 Y3.9561
G1 X1.675 Y3.9673
G1 X1.6607 Y3.9776
G1 X1.6454 Y3.9868
G1 X1.6291 Y3.9949
G1 X1.612 Y4.0017
G1 X1.5942 Y4.0073
G1 X1.5758 Y4.0114
G1 X1.5569 Y4.0141
G1 X1.5376 Y4.0152
G1 X1.5181 Y4.0148
G1 X1.4985 Y4.0128
G1 X1.4789 Y4.0092
G1 X1.4596 Y4.0041
G1 X1.4406 Y3.9973
G1 X1.422 Y3.989
G1 X1.4041 Y3.9791
G1 X1.3869 Y3.9678
G1 X1.3706 Y3.955
G1 X1.3553 Y3.941
G1 X1.3411 Y3.9256
G1 X1.3282 Y3.9092
G1 X1.3165 Y3.8916
G1 X1.3063 Y3.8731
G1 X1.2976 Y3.8538
G1 X1.2904 Y3.8339
G1 X1.2848 Y3.8133
G1 X1.2809 Y3.7923
G1 X1.2787 Y3.7711
G1 X1.2781 Y3.7496
G1 X1.2794 Y3.7282
G1 X1.2823 Y3.707
G1 X1.2869 Y3.686
G1 X1.2932 Y3.6654
G1 X1.3012 Y3.6454
G1 X1.3107 Y3.626
G1 X1.3218 Y3.6075
G1 X1.3343 Y3.5899
G1 X1.3482 Y3.5734
G1 X1.3634 Y3.558
G1 X1.3798 Y3.5439
G1 X1.3973 Y3.5312
G1 X1.4157 Y3.5199
G1 X1.435 Y3.5101
G1 X1.455 Y3.5019
G1 X1.4757 Y3.4953
G1 X1.4967 Y3.4904
G1 X1.5182 Y3.4872
G1 X1.5398 Y3.4857
G1 X1.5614 Y3.486
G1 X1.583 Y3.488
G1 X1.6043 Y3.4917
G1 X1.6253 Y3.4971
G1 X1.6458 Y3.5042
G1 X1.6656 Y3.5129
G1 X1.6847 Y3.5232
G1 X1.7029 Y3.535
G1 X1.7201 Y3.5482
G1 X1.7388 Y3.5651
G1 X1.757 Y3.5844
G1 X1.774 Y3.6058
G1 X1.7897 Y3.6289
G1 X1.8032 Y3.653
G1 X1.8146 Y3.6774
G1 X1.8237 Y3.7021
G1 X1.8306 Y3.7268
G1 X1.8354 Y3.7515
G1 X1.8382 Y3.776
G1 X1.839 Y3.8004
G1 X1.8378 Y3.8245
G1 X1.8347 Y3.8483
G1 X1.8298 Y3.8715
G1 X1.8242 Y3.8901
G1 X1.8225 Y3.8951
G1 X1.8203 Y3.8999
G1 X1.8177 Y3.9045
G1 X1.7805 Y3.9637
G1 X1.765 Y3.9858
G1 X1.7515 Y4.002
G1 X1.7365 Y4.0175
G1 X1.7198 Y4.0321
G1 X1.7015 Y4.0457
G1 X1.6817 Y4.058
G1 X1.6757 Y4.0611
G1 X1.6664 Y4.0649
G1 X1.6567 Y4.0671
G1 X1.6467 Y4.0676
G3 X1.6236 Y4.0408 Z-0.0709 I0.0018 J-0.0249
G3 X1.6325 Y4.0234 I0.0249 J0.0018
G1 X1.7429 Y3.9319
G3 X1.7715 Y3.9295 I0.016 J0.0192
G3 X1.7805 Y3.9637 Z-0.0787 I-0.0126 J0.0216
G1 X1.721 Y4.0582
G1 X1.7198 Y4.0599
G1 X1.7183 Y4.0616
G1 X1.7156 Y4.064
G1 X1.7129 Y4.0658
G1 X1.7088 Y4.0678
G1 X1.7047 Y4.069
G1 X1.7007 Y4.0695
G1 X1.6966
G1 X1.4519 Y4.0602
G1 X1.4298 Y4.0582
G1 X1.4137 Y4.0555
G1 X1.3973 Y4.0513
G1 X1.3801 Y4.0454
G1 X1.362 Y4.0376
G1 X1.358 Y4.0354
G1 X1.3483 Y4.029
G1 X1.3402 Y4.0208
G1 X1.3338 Y4.0112
G3 X1.3454 Y3.9778 Z-0.0709 I0.0225 J-0.0109
G3 X1.3649 Y3.9768 I0.0109 J0.0225
G1 X1.4605 Y4.0117
G3 X1.477 Y4.0352 I-0.0086 J0.0235
G3 X1.4519 Y4.0602 Z-0.0787 I-0.025 J-0.0001
G1 X1.3785 Y4.0574
G1 X1.3703 Y4.057
G1 X1.3662 Y4.0561
G1 X1.3642 Y4.0555
G1 X1.3621 Y4.0546
G1 X1.3601 Y4.0534
G1 X1.357 Y4.0512
G1 X1.354 Y4.0481
G1 X1.3519 Y4.0453
G1 X1.3475 Y4.0371
G1 X1.2316 Y3.8176
G1 X1.2238 Y3.8008
G1 X1.2185 Y3.7865
G1 X1.214 Y3.7704
G1 X1.2107 Y3.7536
G1 X1.2085 Y3.7349
G1 Y3.7343
G1 X1.2093 Y3.7227
G1 X1.2123 Y3.7116
G1 X1.2174 Y3.7012
G3 X1.2522 Y3.6946 Z-0.0709 I0.0207 J0.014
G3 X1.2628 Y3.7111 I-0.014 J0.0207
G1 X1.278 Y3.801
G3 X1.2657 Y3.8269 I-0.0246 J0.0042
G3 X1.2316 Y3.8176 Z-0.0787 I-0.0124 J-0.0217
G1 X1.199 Y3.7558
G1 X1.1971 Y3.7517
G1 X1.1961 Y3.7476
G1 X1.1957 Y3.7435
G1 X1.196 Y3.7394
G1 X1.1969 Y3.7353
G1 X1.1978 Y3.733
G1 X1.199 Y3.7306
G1 X1.2072 Y3.7176
G1 X1.3345 Y3.5151
G1 X1.3472 Y3.4971
G1 X1.3567 Y3.4856
G1 X1.3683 Y3.4737
G1 X1.3811 Y3.4625
G1 X1.3923 Y3.4543
G1 X1.4006 Y3.4491
G1 X1.4098 Y3.4454
G1 X1.4194 Y3.4433
G1 X1.4292 Y3.4428
G3 X1.4523 Y3.4696 Z-0.0709 I-0.0018 J0.0249
G3 X1.4435 Y3.4869 I-0.0249 J-0.0018
G1 X1.3722 Y3.5468
G3 X1.3436 Y3.5493 I-0.0161 J-0.0191
G3 X1.3345 Y3.5151 Z-0.0787 I0.0126 J-0.0216
G1 X1.373 Y3.454
G1 X1.3744 Y3.4519
G1 X1.3762 Y3.4499
G1 X1.3785 Y3.4477
G1 X1.3805 Y3.4461
G1 X1.3825 Y3.4448
G1 X1.3846 Y3.4438
G1 X1.3866 Y3.443
G1 X1.3892 Y3.4422
G1 X1.3919 Y3.4417
G1 X1.3948 Y3.4415
G1 X1.4192 Y3.4424
G1 X1.6558 Y3.4514
G1 X1.6707 Y3.4528
G1 X1.6853 Y3.4552
G1 X1.7018 Y3.4594
G1 X1.7182 Y3.465
G1 X1.7309 Y3.4705
G1 X1.7396 Y3.4752
G1 X1.7473 Y3.4813
G1 X1.7539 Y3.4885
G1 X1.7593 Y3.4968
G3 X1.7477 Y3.5302 Z-0.0709 I-0.0225 J0.0109
G3 X1.7278 Y3.531 I-0.0109 J-0.0225
G1 X1.6467 Y3.4998
G3 X1.6307 Y3.4763 I0.009 J-0.0233
G3 X1.6558 Y3.4514 Z-0.0787 I0.025 J0.0001
G1 X1.721 Y3.4539
G1 X1.7251 Y3.4543
G1 X1.7292 Y3.4552
G1 X1.7322 Y3.4564
G1 X1.7352 Y3.458
G1 X1.7374 Y3.4596
G1 X1.739 Y3.4611
G1 X1.7407 Y3.4629
G1 X1.7431 Y3.4662
G1 X1.7474 Y3.4744
G1 X1.8842 Y3.7335
G1 X1.8933 Y3.7531
G1 X1.8956 Y3.7626
G1 X1.8957 Y3.7723
G1 X1.8936 Y3.7818
G1 X1.8894 Y3.7906
G3 X1.8547 Y3.7972 Z-0.0709 I-0.0207 J-0.014
G3 X1.8442 Y3.7815 I0.014 J-0.0207
G1 X1.838 Y3.751
G3 X1.8501 Y3.7242 I0.0245 J-0.005
G3 X1.8842 Y3.7335 Z-0.0787 I0.0124 J0.0217
G1 X1.8938 Y3.7517
G1 X1.8977 Y3.7598
G1 X1.8988 Y3.7639
G1 X1.8991 Y3.768
G1 X1.8988 Y3.772
G1 X1.8977 Y3.7761
G1 X1.8969 Y3.7782
G1 X1.8959 Y3.7802
G1 X1.8923 Y3.7859
G1 X1.8177 Y3.9045
G1 X1.8159 Y3.9069
G1 X1.8138 Y3.909
G1 X1.8113 Y3.9106 Z-0.0786
G1 X1.8088 Y3.9122 Z-0.078
G1 X1.8064 Y3.9137 Z-0.0771
G1 X1.8033 Y3.9143 Z-0.0756
G1 X1.8004 Y3.9149 Z-0.0737
G1 X1.7978 Y3.9155 Z-0.0714
G1 X1.797 Z-0.0706
G1 X1.7948 Y3.9152 Z-0.0677
G1 X1.7929 Y3.915 Z-0.0645
G1 X1.7916 Y3.9148 Z-0.0611
G1 X1.7908 Y3.9147 Z-0.0574
G1 X1.7905 Y3.9146 Z-0.0538
G0 Z0.1969
G0 X1.4663 Y3.8464
G0 Z0.0197
G3 X1.4868 Y3.6499 Z0.0116 I0.0809 J-0.0909 F10.9
G3 X1.6664 Y3.7318 Z0.0036 I0.0603 J0.1055
G3 X1.5318 Y3.8758 Z-0.0045 I-0.1191 J0.0236
G3 X1.4382 Y3.7025 Z-0.0125 I0.0155 J-0.1203
G3 X1.632 Y3.669 Z-0.0206 I0.109 J0.053
G3 X1.6021 Y3.8632 Z-0.0286 I-0.0848 J0.0863
G3 X1.4278 Y3.7732 Z-0.0367 I-0.0548 J-0.1077
G3 X1.5685 Y3.6367 Z-0.0447 I0.1194 J-0.0176
G3 X1.653 Y3.8133 Z-0.0528 I-0.0213 J0.1187
G3 X1.4588 Y3.8372 Z-0.0608 I-0.1056 J-0.0579
G3 X1.498 Y3.6458 Z-0.0689 I0.0884 J-0.0816
G3 X1.6668 Y3.7437 Z-0.077 I0.0492 J0.1096
G3 X1.5204 Y3.8724 Z-0.085 I-0.1195 J0.0117
G3 X1.4451 Y3.6929 Z-0.0931 I0.0269 J-0.1168
G3 X1.639 Y3.6786 Z-0.1011 I0.1021 J0.0626
G3 X1.5908 Y3.8668 Z-0.1092 I-0.0917 J0.0768
G3 X1.428 Y3.7613 Z-0.1172 I-0.0435 J-0.1113
G3 X1.5796 Y3.6407 Z-0.1253 I0.1192 J-0.0058
G3 X1.6456 Y3.8226 Z-0.1333 I-0.0324 J0.1147
G3 X1.4524 Y3.8273 Z-0.1414 I-0.0983 J-0.0671
G3 X1.5094 Y3.6428 Z-0.1494 I0.0948 J-0.0718
G3 X1.6659 Y3.7554 Z-0.1575 I0.0378 J0.1126
G3 X1.4284 I-0.1188 J0.
G3 X1.6659 I0.1188 J0.
G1 X1.6661 Y3.7644 F32.8
G1 X1.6722 Y3.7998
G1 X1.6738 Y3.8039
G1 X1.6754 Y3.8096
G1 X1.6765 Y3.8154
G1 X1.677 Y3.8213
G1 X1.6769 Y3.8274
G1 X1.6764 Y3.834
G1 X1.6753 Y3.8409
G1 X1.6735 Y3.8482
G1 X1.671 Y3.8558
G1 X1.6677 Y3.8635
G1 X1.6636 Y3.8714
G1 X1.6586 Y3.8792
G1 X1.6527 Y3.887
G1 X1.646 Y3.8946
G1 X1.6384 Y3.9019
G1 X1.63 Y3.9089
G1 X1.6207 Y3.9153
G1 X1.6106 Y3.9211
G1 X1.5997 Y3.9263
G1 X1.5882 Y3.9307
G1 X1.5761 Y3.9342
G1 X1.5635 Y3.9368
G1 X1.5505 Y3.9385
G1 X1.5372 Y3.939
G1 X1.5236 Y3.9385
G1 X1.51 Y3.9369
G1 X1.4964 Y3.9342
G1 X1.4828 Y3.9303
G1 X1.4695 Y3.9254
G1 X1.4565 Y3.9193
G1 X1.444 Y3.9121
G1 X1.432 Y3.9039
G1 X1.4206 Y3.8947
G1 X1.4099 Y3.8846
G1 X1.4001 Y3.8735
G1 X1.3911 Y3.8617
G1 X1.3831 Y3.8492
G1 X1.376 Y3.836
G1 X1.3701 Y3.8223
G1 X1.3652 Y3.808
G1 X1.3615 Y3.7935
G1 X1.359 Y3.7786
G1 X1.3577 Y3.7635
G1 X1.3576 Y3.7484
G1 X1.3587 Y3.7333
G1 X1.361 Y3.7183
G1 X1.3645 Y3.7036
G1 X1.3692 Y3.6891
G1 X1.3751 Y3.6751
G1 X1.382 Y3.6616
G1 X1.39 Y3.6486
G1 X1.3991 Y3.6364
G1 X1.4091 Y3.6249
G1 X1.4199 Y3.6142
G1 X1.4317 Y3.6045
G1 X1.4441 Y3.5957
G1 X1.4573 Y3.5879
G1 X1.471 Y3.5813
G1 X1.4852 Y3.5757
G1 X1.4998 Y3.5713
G1 X1.5147 Y3.5681
G1 X1.5298 Y3.5661
G1 X1.5451 Y3.5653
G1 X1.5603 Y3.5657
G1 X1.5755 Y3.5674
G1 X1.5905 Y3.5703
G1 X1.6052 Y3.5743
G1 X1.6196 Y3.5796
G1 X1.6334 Y3.5859
G1 X1.6467 Y3.5934
G1 X1.6594 Y3.6019
G1 X1.6714 Y3.6114
G1 X1.6825 Y3.6219
G1 X1.6928 Y3.6331
G1 X1.7022 Y3.6452
G1 X1.7107 Y3.6584
G1 X1.7262 Y3.6868
G1 X1.7379 Y3.7132
G1 X1.7455 Y3.7349
G1 X1.7506 Y3.7545
G1 X1.7539 Y3.7729
G1 X1.7556 Y3.7908
G1 X1.7559 Y3.8081
G1 X1.7548 Y3.8249
G1 X1.7524 Y3.8413
G1 X1.7487 Y3.8574
G1 X1.7438 Y3.8731
G1 X1.7375 Y3.8884
G1 X1.7301 Y3.9032
G1 X1.7214 Y3.9174
G1 X1.7115 Y3.931
G1 X1.7005 Y3.9439
G1 X1.6883 Y3.9561
G1 X1.675 Y3.9673
G1 X1.6607 Y3.9776
G1 X1.6454 Y3.9868
G1 X1.6291 Y3.9949
G1 X1.612 Y4.0017
G1 X1.5942 Y4.0073
G1 X1.5758 Y4.0114
G1 X1.5569 Y4.0141
G1 X1.5376 Y4.0152
G1 X1.5181 Y4.0148
G1 X1.4985 Y4.0128
G1 X1.4789 Y4.0092
G1 X1.4596 Y4.0041
G1 X1.4406 Y3.9973
G1 X1.422 Y3.989
G1 X1.4041 Y3.9791
G1 X1.3869 Y3.9678
G1 X1.3706 Y3.955
G1 X1.3553 Y3.941
G1 X1.3411 Y3.9256
G1 X1.3282 Y3.9092
G1 X1.3165 Y3.8916
G1 X1.3063 Y3.8731
G1 X1.2976 Y3.8538
G1 X1.2904 Y3.8339
G1 X1.2848 Y3.8133
G1 X1.2809 Y3.7923
G1 X1.2787 Y3.7711
G1 X1.2781 Y3.7496
G1 X1.2794 Y3.7282
G1 X1.2823 Y3.707
G1 X1.2869 Y3.686
G1 X1.2932 Y3.6654
G1 X1.3012 Y3.6454
G1 X1.3107 Y3.626
G1 X1.3218 Y3.6075
G1 X1.3343 Y3.5899
G1 X1.3482 Y3.5734
G1 X1.3634 Y3.558
G1 X1.3798 Y3.5439
G1 X1.3973 Y3.5312
G1 X1.4157 Y3.5199
G1 X1.435 Y3.5101
G1 X1.455 Y3.5019
G1 X1.4757 Y3.4953
G1 X1.4967 Y3.4904
G1 X1.5182 Y3.4872
G1 X1.5398 Y3.4857
G1 X1.5614 Y3.486
G1 X1.583 Y3.488
G1 X1.6043 Y3.4917
G1 X1.6253 Y3.4971
G1 X1.6458 Y3.5042
G1 X1.6656 Y3.5129
G1 X1.6847 Y3.5232
G1 X1.7029 Y3.535
G1 X1.7201 Y3.5482
G1 X1.7388 Y3.5651
G1 X1.757 Y3.5844
G1 X1.774 Y3.6058
G1 X1.7897 Y3.6289
G1 X1.8032 Y3.653
G1 X1.8146 Y3.6774
G1 X1.8237 Y3.7021
G1 X1.8306 Y3.7268
G1 X1.8354 Y3.7515
G1 X1.8382 Y3.776
G1 X1.839 Y3.8004
G1 X1.8378 Y3.8245
G1 X1.8347 Y3.8483
G1 X1.8298 Y3.8715
G1 X1.8242 Y3.8901
G1 X1.8225 Y3.8951
G1 X1.8203 Y3.8999
G1 X1.8177 Y3.9045
G1 X1.7805 Y3.9637
G1 X1.765 Y3.9858
G1 X1.7515 Y4.002
G1 X1.7365 Y4.0175
G1 X1.7198 Y4.0321
G1 X1.7015 Y4.0457
G1 X1.6817 Y4.058
G1 X1.6757 Y4.0611
G1 X1.6664 Y4.0649
G1 X1.6567 Y4.0671
G1 X1.6467 Y4.0676
G3 X1.6236 Y4.0408 Z-0.1496 I0.0018 J-0.0249
G3 X1.6325 Y4.0234 I0.0249 J0.0018
G1 X1.7429 Y3.9319
G3 X1.7715 Y3.9295 I0.016 J0.0192
G3 X1.7805 Y3.9637 Z-0.1575 I-0.0126 J0.0216
G1 X1.721 Y4.0582
G1 X1.7198 Y4.0599
G1 X1.7183 Y4.0616
G1 X1.7156 Y4.064
G1 X1.7129 Y4.0658
G1 X1.7088 Y4.0678
G1 X1.7047 Y4.069
G1 X1.7007 Y4.0695
G1 X1.6966
G1 X1.4519 Y4.0602
G1 X1.4298 Y4.0582
G1 X1.4137 Y4.0555
G1 X1.3973 Y4.0513
G1 X1.3801 Y4.0454
G1 X1.362 Y4.0376
G1 X1.358 Y4.0354
G1 X1.3483 Y4.029
G1 X1.3402 Y4.0208
G1 X1.3338 Y4.0112
G3 X1.3454 Y3.9778 Z-0.1496 I0.0225 J-0.0109
G3 X1.3649 Y3.9768 I0.0109 J0.0225
G1 X1.4605 Y4.0117
G3 X1.477 Y4.0352 I-0.0086 J0.0235
G3 X1.4519 Y4.0602 Z-0.1575 I-0.025 J-0.0001
G1 X1.3785 Y4.0574
G1 X1.3703 Y4.057
G1 X1.3662 Y4.0561
G1 X1.3642 Y4.0555
G1 X1.3621 Y4.0546
G1 X1.3601 Y4.0534
G1 X1.357 Y4.0512
G1 X1.354 Y4.0481
G1 X1.3519 Y4.0453
G1 X1.3475 Y4.0371
G1 X1.2316 Y3.8176
G1 X1.2238 Y3.8008
G1 X1.2185 Y3.7865
G1 X1.214 Y3.7704
G1 X1.2107 Y3.7536
G1 X1.2085 Y3.7349
G1 Y3.7343
G1 X1.2093 Y3.7227
G1 X1.2123 Y3.7116
G1 X1.2174 Y3.7012
G3 X1.2522 Y3.6946 Z-0.1496 I0.0207 J0.014
G3 X1.2628 Y3.7111 I-0.014 J0.0207
G1 X1.278 Y3.801
G3 X1.2657 Y3.8269 I-0.0246 J0.0042
G3 X1.2316 Y3.8176 Z-0.1575 I-0.0124 J-0.0217
G1 X1.199 Y3.7558
G1 X1.1971 Y3.7517
G1 X1.1961 Y3.7476
G1 X1.1957 Y3.7435
G1 X1.196 Y3.7394
G1 X1.1969 Y3.7353
G1 X1.1978 Y3.733
G1 X1.199 Y3.7306
G1 X1.2072 Y3.7176
G1 X1.3345 Y3.5151
G1 X1.3472 Y3.4971
G1 X1.3567 Y3.4856
G1 X1.3683 Y3.4737
G1 X1.3811 Y3.4625
G1 X1.3923 Y3.4543
G1 X1.4006 Y3.4491
G1 X1.4098 Y3.4454
G1 X1.4194 Y3.4433
G1 X1.4292 Y3.4428
G3 X1.4523 Y3.4696 Z-0.1496 I-0.0018 J0.0249
G3 X1.4435 Y3.4869 I-0.0249 J-0.0018
G1 X1.3722 Y3.5468
G3 X1.3436 Y3.5493 I-0.0161 J-0.0191
G3 X1.3345 Y3.5151 Z-0.1575 I0.0126 J-0.0216
G1 X1.373 Y3.454
G1 X1.3744 Y3.4519
G1 X1.3762 Y3.4499
G1 X1.3785 Y3.4477
G1 X1.3805 Y3.4461
G1 X1.3825 Y3.4448
G1 X1.3846 Y3.4438
G1 X1.3866 Y3.443
G1 X1.3892 Y3.4422
G1 X1.3919 Y3.4417
G1 X1.3948 Y3.4415
G1 X1.4192 Y3.4424
G1 X1.6558 Y3.4514
G1 X1.6707 Y3.4528
G1 X1.6853 Y3.4552
G1 X1.7018 Y3.4594
G1 X1.7182 Y3.465
G1 X1.7309 Y3.4705
G1 X1.7396 Y3.4752
G1 X1.7473 Y3.4813
G1 X1.7539 Y3.4885
G1 X1.7593 Y3.4968
G3 X1.7477 Y3.5302 Z-0.1496 I-0.0225 J0.0109
G3 X1.7278 Y3.531 I-0.0109 J-0.0225
G1 X1.6467 Y3.4998
G3 X1.6307 Y3.4763 I0.009 J-0.0233
G3 X1.6558 Y3.4514 Z-0.1575 I0.025 J0.0001
G1 X1.721 Y3.4539
G1 X1.7251 Y3.4543
G1 X1.7292 Y3.4552
G1 X1.7322 Y3.4564
G1 X1.7352 Y3.458
G1 X1.7374 Y3.4596
G1 X1.739 Y3.4611
G1 X1.7407 Y3.4629
G1 X1.7431 Y3.4662
G1 X1.7474 Y3.4744
G1 X1.8842 Y3.7335
G1 X1.8933 Y3.7531
G1 X1.8956 Y3.7626
G1 X1.8957 Y3.7723
G1 X1.8936 Y3.7818
G1 X1.8894 Y3.7906
G3 X1.8547 Y3.7972 Z-0.1496 I-0.0207 J-0.014
G3 X1.8442 Y3.7815 I0.014 J-0.0207
G1 X1.838 Y3.751
G3 X1.8501 Y3.7242 I0.0245 J-0.005
G3 X1.8842 Y3.7335 Z-0.1575 I0.0124 J0.0217
G1 X1.8938 Y3.7517
G1 X1.8977 Y3.7598
G1 X1.8988 Y3.7639
G1 X1.8991 Y3.768
G1 X1.8988 Y3.772
G1 X1.8977 Y3.7761
G1 X1.8969 Y3.7782
G1 X1.8959 Y3.7802
G1 X1.8923 Y3.7859
G1 X1.8177 Y3.9045
G3 X1.7905 Y3.9146 I-0.0207 J-0.014
G1 X1.7868 Y3.9136 Z-0.1572
G1 X1.7831 Y3.9126 Z-0.1563
G1 X1.7796 Y3.9117 Z-0.1548
G1 X1.7764 Y3.9108 Z-0.1527
G1 X1.7735 Y3.91 Z-0.1502
G1 X1.771 Y3.9094 Z-0.1472
G1 X1.769 Y3.9089 Z-0.1438
G1 X1.7676 Y3.9085 Z-0.1402
G1 X1.7667 Y3.9082 Z-0.1364
G1 X1.7664 Y3.9081 Z-0.1325
G0 Z0.5906

N20(2D Adaptive4)
S9000 M3 M8
G0 X1.4665 Y3.8465
G0 Z0.5906
G0 Z0.1969
G0 Z0.0984
G3 X1.487 Y3.65 Z0.0904 I0.0809 J-0.0909 F10.9
G3 X1.6666 Y3.7319 Z0.0823 I0.0603 J0.1055
G3 X1.532 Y3.8759 Z0.0743 I-0.1191 J0.0236
G3 X1.4384 Y3.7026 Z0.0662 I0.0155 J-0.1203
G3 X1.6323 Y3.6691 Z0.0582 I0.109 J0.053
G3 X1.6023 Y3.8633 Z0.0501 I-0.0848 J0.0863
G3 X1.428 Y3.7732 Z0.0421 I-0.0548 J-0.1077
G3 X1.5687 Y3.6368 Z0.034 I0.1194 J-0.0176
G3 X1.6532 Y3.8134 Z0.0259 I-0.0213 J0.1187
G3 X1.4591 Y3.8372 Z0.0179 I-0.1056 J-0.0579
G3 X1.4982 Y3.6459 Z0.0098 I0.0884 J-0.0816
G3 X1.667 Y3.7438 Z0.0018 I0.0492 J0.1096
G3 X1.5206 Y3.8724 Z-0.0063 I-0.1195 J0.0117
G3 X1.4453 Y3.6929 Z-0.0143 I0.0269 J-0.1168
G3 X1.6392 Y3.6787 Z-0.0224 I0.1021 J0.0626
G3 X1.591 Y3.8668 Z-0.0304 I-0.0917 J0.0768
G3 X1.4282 Y3.7614 Z-0.0385 I-0.0435 J-0.1113
G3 X1.5798 Y3.6408 Z-0.0465 I0.1192 J-0.0058
G3 X1.6459 Y3.8227 Z-0.0546 I-0.0324 J0.1147
G3 X1.4526 Y3.8274 Z-0.0626 I-0.0983 J-0.0671
G3 X1.5096 Y3.6429 Z-0.0707 I0.0948 J-0.0718
G3 X1.6662 Y3.7555 Z-0.0787 I0.0378 J0.1126
G3 X1.4286 I-0.1188 J0.
G3 X1.6662 I0.1188 J0.
G1 X1.6663 Y3.7645 F32.8
G1 X1.6724 Y3.7998
G1 X1.674 Y3.804
G1 X1.6757 Y3.8097
G1 X1.6767 Y3.8155
G1 X1.6772 Y3.8214
G1 Y3.8275
G1 X1.6766 Y3.8341
G1 X1.6755 Y3.841
G1 X1.6737 Y3.8483
G1 X1.6712 Y3.8559
G1 X1.6679 Y3.8636
G1 X1.6638 Y3.8714
G1 X1.6588 Y3.8793
G1 X1.653 Y3.8871
G1 X1.6462 Y3.8947
G1 X1.6386 Y3.902
G1 X1.6302 Y3.9089
G1 X1.6209 Y3.9154
G1 X1.6108 Y3.9212
G1 X1.6 Y3.9264
G1 X1.5885 Y3.9308
G1 X1.5764 Y3.9343
G1 X1.5638 Y3.9369
G1 X1.5507 Y3.9385
G1 X1.5374 Y3.9391
G1 X1.5239 Y3.9386
G1 X1.5102 Y3.937
G1 X1.4966 Y3.9343
G1 X1.483 Y3.9304
G1 X1.4697 Y3.9254
G1 X1.4568 Y3.9193
G1 X1.4442 Y3.9122
G1 X1.4322 Y3.904
G1 X1.4208 Y3.8948
G1 X1.4102 Y3.8846
G1 X1.4003 Y3.8736
G1 X1.3913 Y3.8618
G1 X1.3833 Y3.8493
G1 X1.3763 Y3.8361
G1 X1.3703 Y3.8223
G1 X1.3655 Y3.8081
G1 X1.3618 Y3.7935
G1 X1.3592 Y3.7787
G1 X1.3579 Y3.7636
G1 X1.3578 Y3.7485
G1 X1.3589 Y3.7334
G1 X1.3612 Y3.7184
G1 X1.3647 Y3.7036
G1 X1.3694 Y3.6892
G1 X1.3753 Y3.6752
G1 X1.3822 Y3.6616
G1 X1.3902 Y3.6487
G1 X1.3993 Y3.6365
G1 X1.4093 Y3.625
G1 X1.4202 Y3.6143
G1 X1.4319 Y3.6046
G1 X1.4443 Y3.5958
G1 X1.4575 Y3.588
G1 X1.4712 Y3.5813
G1 X1.4854 Y3.5758
G1 X1.5 Y3.5714
G1 X1.5149 Y3.5682
G1 X1.53 Y3.5662
G1 X1.5453 Y3.5654
G1 X1.5605 Y3.5658
G1 X1.5757 Y3.5675
G1 X1.5907 Y3.5703
G1 X1.6054 Y3.5744
G1 X1.6198 Y3.5797
G1 X1.6336 Y3.586
G1 X1.647 Y3.5935
G1 X1.6596 Y3.602
G1 X1.6716 Y3.6115
G1 X1.6828 Y3.6219
G1 X1.693 Y3.6332
G1 X1.7024 Y3.6453
G1 X1.7109 Y3.6584
G1 X1.7264 Y3.6869
G1 X1.7381 Y3.7133
G1 X1.7457 Y3.735
G1 X1.7508 Y3.7546
G1 X1.7541 Y3.773
G1 X1.7558 Y3.7909
G1 X1.7561 Y3.8082
G1 X1.755 Y3.825
G1 X1.7526 Y3.8414
G1 X1.7489 Y3.8575
G1 X1.7476 Y3.8618
G1 X1.7461 Y3.8658
G1 X1.7444 Y3.8697
G1 X1.7424 Y3.8734
G1 X1.7374 Y3.8822
G1 X1.7325 Y3.8903
G1 X1.7292 Y3.8942
G1 X1.7033 Y3.9229
G1 X1.6999 Y3.9263
G1 X1.6966 Y3.9288
G1 X1.6639 Y3.9525
G1 X1.6612 Y3.9542
G1 X1.6584 Y3.9556
G1 X1.6218 Y3.9719
G1 X1.6184 Y3.9732
G1 X1.615 Y3.9741
G1 X1.5742 Y3.9828
G1 X1.5701 Y3.9833
G1 X1.5661 Y3.9834
G1 X1.5253
G1 X1.5171 Y3.982
G1 X1.4845 Y3.9751
G1 X1.4763 Y3.9732
G1 X1.4731 Y3.9719
G1 X1.4356 Y3.9552
G1 X1.4315 Y3.9529
G1 X1.4111 Y3.9381
G1 X1.4014 Y3.9311
G1 X1.3948 Y3.9261
G1 X1.3916 Y3.9229
G1 X1.3695 Y3.8985
G1 X1.3624 Y3.8903
G1 X1.3621 Y3.89
G1 X1.3575 Y3.8822
G1 X1.3433 Y3.8577
G1 X1.3387 Y3.8495
G1 X1.3377 Y3.8471
G1 X1.3252 Y3.8087
G1 X1.3239 Y3.8047
G1 X1.3231 Y3.8006
G1 X1.3188 Y3.7598
G1 X1.3185 Y3.7557
G1 X1.3188 Y3.7517
G1 X1.3231 Y3.7109
G1 X1.3238 Y3.7068
G1 X1.3251 Y3.7027
G1 X1.3377 Y3.6641
G1 X1.3386 Y3.6619
G1 X1.3432 Y3.6538
G1 X1.3573 Y3.6293
G1 X1.3622 Y3.6212
G1 X1.3703 Y3.6119
G1 X1.3914 Y3.5885
G1 X1.3948 Y3.5851
G1 X1.4011 Y3.5804
G1 X1.4274 Y3.5613
G1 X1.4315 Y3.5583
G1 X1.4356 Y3.5561
G1 X1.4726 Y3.5396
G1 X1.4763 Y3.538
G1 X1.4845 Y3.5361
G1 X1.5171 Y3.5292
G1 X1.5253 Y3.5279
G1 X1.5661 Y3.5278
G1 X1.5701 Y3.5279
G1 X1.5742 Y3.5284
G1 X1.615 Y3.5371
G1 X1.6186 Y3.5381
G1 X1.6232 Y3.54
G1 X1.6589 Y3.5559
G1 X1.6614 Y3.5572
G1 X1.6639 Y3.5587
G1 X1.6966 Y3.5824
G1 X1.7 Y3.585
G1 X1.7035 Y3.5885
G1 X1.7292 Y3.6171
G1 X1.7327 Y3.6212
G1 X1.7375 Y3.6293
G1 X1.7537 Y3.6573
G1 X1.7563 Y3.6619
G1 X1.7592 Y3.6701
G1 X1.77 Y3.7034
G1 X1.7711 Y3.7072
G1 X1.7718 Y3.7109
G1 X1.7761 Y3.7517
G1 X1.7763 Y3.7557
G1 X1.776 Y3.7598
G1 X1.7717 Y3.8006
G1 X1.7711 Y3.8042
G1 X1.7697 Y3.8087
G1 X1.7591 Y3.8414
G1 X1.7562 Y3.8495
G1 X1.7537 Y3.854
G1 X1.7424 Y3.8734
G1 X1.7407 Y3.8758
G1 X1.7387 Y3.878
G1 X1.7363 Y3.8797 Z-0.0786
G1 X1.7338 Y3.8814 Z-0.078
G1 X1.7315 Y3.883 Z-0.0771
G1 X1.7284 Y3.8837 Z-0.0756
G1 X1.7255 Y3.8845 Z-0.0737
G1 X1.723 Y3.8851 Z-0.0714
G1 X1.7212 Y3.8852 Z-0.0695
G1 X1.7193 Y3.8849 Z-0.0667
G1 X1.7177 Y3.8848 Z-0.0637
G1 X1.7166 Y3.8846 Z-0.0605
G1 X1.7159 Z-0.0572
G1 X1.7157 Y3.8845 Z-0.0538
G0 Z0.1969
G0 X1.4665 Y3.8465
G0 Z0.0197
G3 X1.487 Y3.65 Z0.0116 I0.0809 J-0.0909 F10.9
G3 X1.6666 Y3.7319 Z0.0036 I0.0603 J0.1055
G3 X1.532 Y3.8759 Z-0.0045 I-0.1191 J0.0236
G3 X1.4384 Y3.7026 Z-0.0125 I0.0155 J-0.1203
G3 X1.6323 Y3.6691 Z-0.0206 I0.109 J0.053
G3 X1.6023 Y3.8633 Z-0.0286 I-0.0848 J0.0863
G3 X1.428 Y3.7732 Z-0.0367 I-0.0548 J-0.1077
G3 X1.5687 Y3.6368 Z-0.0447 I0.1194 J-0.0176
G3 X1.6532 Y3.8134 Z-0.0528 I-0.0213 J0.1187
G3 X1.4591 Y3.8372 Z-0.0608 I-0.1056 J-0.0579
G3 X1.4982 Y3.6459 Z-0.0689 I0.0884 J-0.0816
G3 X1.667 Y3.7438 Z-0.077 I0.0492 J0.1096
G3 X1.5206 Y3.8724 Z-0.085 I-0.1195 J0.0117
G3 X1.4453 Y3.6929 Z-0.0931 I0.0269 J-0.1168
G3 X1.6392 Y3.6787 Z-0.1011 I0.1021 J0.0626
G3 X1.591 Y3.8668 Z-0.1092 I-0.0917 J0.0768
G3 X1.4282 Y3.7614 Z-0.1172 I-0.0435 J-0.1113
G3 X1.5798 Y3.6408 Z-0.1253 I0.1192 J-0.0058
G3 X1.6459 Y3.8227 Z-0.1333 I-0.0324 J0.1147
G3 X1.4526 Y3.8274 Z-0.1414 I-0.0983 J-0.0671
G3 X1.5096 Y3.6429 Z-0.1494 I0.0948 J-0.0718
G3 X1.6662 Y3.7555 Z-0.1575 I0.0378 J0.1126
G3 X1.4286 I-0.1188 J0.
G3 X1.6662 I0.1188 J0.
G1 X1.6663 Y3.7645 F32.8
G1 X1.6724 Y3.7998
G1 X1.674 Y3.804
G1 X1.6757 Y3.8097
G1 X1.6767 Y3.8155
G1 X1.6772 Y3.8214
G1 Y3.8275
G1 X1.6766 Y3.8341
G1 X1.6755 Y3.841
G1 X1.6737 Y3.8483
G1 X1.6712 Y3.8559
G1 X1.6679 Y3.8636
G1 X1.6638 Y3.8714
G1 X1.6588 Y3.8793
G1 X1.653 Y3.8871
G1 X1.6462 Y3.8947
G1 X1.6386 Y3.902
G1 X1.6302 Y3.9089
G1 X1.6209 Y3.9154
G1 X1.6108 Y3.9212
G1 X1.6 Y3.9264
G1 X1.5885 Y3.9308
G1 X1.5764 Y3.9343
G1 X1.5638 Y3.9369
G1 X1.5507 Y3.9385
G1 X1.5374 Y3.9391
G1 X1.5239 Y3.9386
G1 X1.5102 Y3.937
G1 X1.4966 Y3.9343
G1 X1.483 Y3.9304
G1 X1.4697 Y3.9254
G1 X1.4568 Y3.9193
G1 X1.4442 Y3.9122
G1 X1.4322 Y3.904
G1 X1.4208 Y3.8948
G1 X1.4102 Y3.8846
G1 X1.4003 Y3.8736
G1 X1.3913 Y3.8618
G1 X1.3833 Y3.8493
G1 X1.3763 Y3.8361
G1 X1.3703 Y3.8223
G1 X1.3655 Y3.8081
G1 X1.3618 Y3.7935
G1 X1.3592 Y3.7787
G1 X1.3579 Y3.7636
G1 X1.3578 Y3.7485
G1 X1.3589 Y3.7334
G1 X1.3612 Y3.7184
G1 X1.3647 Y3.7036
G1 X1.3694 Y3.6892
G1 X1.3753 Y3.6752
G1 X1.3822 Y3.6616
G1 X1.3902 Y3.6487
G1 X1.3993 Y3.6365
G1 X1.4093 Y3.625
G1 X1.4202 Y3.6143
G1 X1.4319 Y3.6046
G1 X1.4443 Y3.5958
G1 X1.4575 Y3.588
G1 X1.4712 Y3.5813
G1 X1.4854 Y3.5758
G1 X1.5 Y3.5714
G1 X1.5149 Y3.5682
G1 X1.53 Y3.5662
G1 X1.5453 Y3.5654
G1 X1.5605 Y3.5658
G1 X1.5757 Y3.5675
G1 X1.5907 Y3.5703
G1 X1.6054 Y3.5744
G1 X1.6198 Y3.5797
G1 X1.6336 Y3.586
G1 X1.647 Y3.5935
G1 X1.6596 Y3.602
G1 X1.6716 Y3.6115
G1 X1.6828 Y3.6219
G1 X1.693 Y3.6332
G1 X1.7024 Y3.6453
G1 X1.7109 Y3.6584
G1 X1.7264 Y3.6869
G1 X1.7381 Y3.7133
G1 X1.7457 Y3.735
G1 X1.7508 Y3.7546
G1 X1.7541 Y3.773
G1 X1.7558 Y3.7909
G1 X1.7561 Y3.8082
G1 X1.755 Y3.825
G1 X1.7526 Y3.8414
G1 X1.7489 Y3.8575
G1 X1.7476 Y3.8618
G1 X1.7461 Y3.8658
G1 X1.7444 Y3.8697
G1 X1.7424 Y3.8734
G1 X1.7374 Y3.8822
G1 X1.7325 Y3.8903
G1 X1.7292 Y3.8942
G1 X1.7033 Y3.9229
G1 X1.6999 Y3.9263
G1 X1.6966 Y3.9288
G1 X1.6639 Y3.9525
G1 X1.6612 Y3.9542
G1 X1.6584 Y3.9556
G1 X1.6218 Y3.9719
G1 X1.6184 Y3.9732
G1 X1.615 Y3.9741
G1 X1.5742 Y3.9828
G1 X1.5701 Y3.9833
G1 X1.5661 Y3.9834
G1 X1.5253
G1 X1.5171 Y3.982
G1 X1.4845 Y3.9751
G1 X1.4763 Y3.9732
G1 X1.4731 Y3.9719
G1 X1.4356 Y3.9552
G1 X1.4315 Y3.9529
G1 X1.4111 Y3.9381
G1 X1.4014 Y3.9311
G1 X1.3948 Y3.9261
G1 X1.3916 Y3.9229
G1 X1.3695 Y3.8985
G1 X1.3624 Y3.8903
G1 X1.3621 Y3.89
G1 X1.3575 Y3.8822
G1 X1.3433 Y3.8577
G1 X1.3387 Y3.8495
G1 X1.3377 Y3.8471
G1 X1.3252 Y3.8087
G1 X1.3239 Y3.8047
G1 X1.3231 Y3.8006
G1 X1.3188 Y3.7598
G1 X1.3185 Y3.7557
G1 X1.3188 Y3.7517
G1 X1.3231 Y3.7109
G1 X1.3238 Y3.7068
G1 X1.3251 Y3.7027
G1 X1.3377 Y3.6641
G1 X1.3386 Y3.6619
G1 X1.3432 Y3.6538
G1 X1.3573 Y3.6293
G1 X1.3622 Y3.6212
G1 X1.3703 Y3.6119
G1 X1.3914 Y3.5885
G1 X1.3948 Y3.5851
G1 X1.4011 Y3.5804
G1 X1.4274 Y3.5613
G1 X1.4315 Y3.5583
G1 X1.4356 Y3.5561
G1 X1.4726 Y3.5396
G1 X1.4763 Y3.538
G1 X1.4845 Y3.5361
G1 X1.5171 Y3.5292
G1 X1.5253 Y3.5279
G1 X1.5661 Y3.5278
G1 X1.5701 Y3.5279
G1 X1.5742 Y3.5284
G1 X1.615 Y3.5371
G1 X1.6186 Y3.5381
G1 X1.6232 Y3.54
G1 X1.6589 Y3.5559
G1 X1.6614 Y3.5572
G1 X1.6639 Y3.5587
G1 X1.6966 Y3.5824
G1 X1.7 Y3.585
G1 X1.7035 Y3.5885
G1 X1.7292 Y3.6171
G1 X1.7327 Y3.6212
G1 X1.7375 Y3.6293
G1 X1.7537 Y3.6573
G1 X1.7563 Y3.6619
G1 X1.7592 Y3.6701
G1 X1.77 Y3.7034
G1 X1.7711 Y3.7072
G1 X1.7718 Y3.7109
G1 X1.7761 Y3.7517
G1 X1.7763 Y3.7557
G1 X1.776 Y3.7598
G1 X1.7717 Y3.8006
G1 X1.7711 Y3.8042
G1 X1.7697 Y3.8087
G1 X1.7591 Y3.8414
G1 X1.7562 Y3.8495
G1 X1.7537 Y3.854
G1 X1.7424 Y3.8734
G1 X1.7407 Y3.8758
G1 X1.7387 Y3.878
G1 X1.7363 Y3.8797 Z-0.1573
G1 X1.7338 Y3.8814 Z-0.1568
G1 X1.7315 Y3.883 Z-0.1559
G1 X1.7284 Y3.8837 Z-0.1544
G1 X1.7255 Y3.8845 Z-0.1525
G1 X1.723 Y3.8851 Z-0.1502
G1 X1.7212 Y3.8852 Z-0.1483
G1 X1.7193 Y3.8849 Z-0.1455
G1 X1.7177 Y3.8848 Z-0.1424
G1 X1.7166 Y3.8846 Z-0.1392
G1 X1.7159 Z-0.1359
G1 X1.7157 Y3.8845 Z-0.1325
G0 Z0.1969
G0 X1.4665 Y3.8465
G0 Z-0.0591
G3 X1.487 Y3.65 Z-0.0671 I0.0809 J-0.0909 F10.9
G3 X1.6666 Y3.7319 Z-0.0752 I0.0603 J0.1055
G3 X1.532 Y3.8759 Z-0.0832 I-0.1191 J0.0236
G3 X1.4384 Y3.7026 Z-0.0913 I0.0155 J-0.1203
G3 X1.6323 Y3.6691 Z-0.0993 I0.109 J0.053
G3 X1.6023 Y3.8633 Z-0.1074 I-0.0848 J0.0863
G3 X1.428 Y3.7732 Z-0.1154 I-0.0548 J-0.1077
G3 X1.5687 Y3.6368 Z-0.1235 I0.1194 J-0.0176
G3 X1.6532 Y3.8134 Z-0.1315 I-0.0213 J0.1187
G3 X1.4591 Y3.8372 Z-0.1396 I-0.1056 J-0.0579
G3 X1.4982 Y3.6459 Z-0.1476 I0.0884 J-0.0816
G3 X1.667 Y3.7438 Z-0.1557 I0.0492 J0.1096
G3 X1.5206 Y3.8724 Z-0.1637 I-0.1195 J0.0117
G3 X1.4453 Y3.6929 Z-0.1718 I0.0269 J-0.1168
G3 X1.6392 Y3.6787 Z-0.1798 I0.1021 J0.0626
G3 X1.591 Y3.8668 Z-0.1879 I-0.0917 J0.0768
G3 X1.4282 Y3.7614 Z-0.196 I-0.0435 J-0.1113
G3 X1.5798 Y3.6408 Z-0.204 I0.1192 J-0.0058
G3 X1.6459 Y3.8227 Z-0.2121 I-0.0324 J0.1147
G3 X1.4526 Y3.8274 Z-0.2201 I-0.0983 J-0.0671
G3 X1.5096 Y3.6429 Z-0.2282 I0.0948 J-0.0718
G3 X1.6662 Y3.7555 Z-0.2362 I0.0378 J0.1126
G3 X1.4286 I-0.1188 J0.
G3 X1.6662 I0.1188 J0.
G1 X1.6663 Y3.7645 F32.8
G1 X1.6724 Y3.7998
G1 X1.674 Y3.804
G1 X1.6757 Y3.8097
G1 X1.6767 Y3.8155
G1 X1.6772 Y3.8214
G1 Y3.8275
G1 X1.6766 Y3.8341
G1 X1.6755 Y3.841
G1 X1.6737 Y3.8483
G1 X1.6712 Y3.8559
G1 X1.6679 Y3.8636
G1 X1.6638 Y3.8714
G1 X1.6588 Y3.8793
G1 X1.653 Y3.8871
G1 X1.6462 Y3.8947
G1 X1.6386 Y3.902
G1 X1.6302 Y3.9089
G1 X1.6209 Y3.9154
G1 X1.6108 Y3.9212
G1 X1.6 Y3.9264
G1 X1.5885 Y3.9308
G1 X1.5764 Y3.9343
G1 X1.5638 Y3.9369
G1 X1.5507 Y3.9385
G1 X1.5374 Y3.9391
G1 X1.5239 Y3.9386
G1 X1.5102 Y3.937
G1 X1.4966 Y3.9343
G1 X1.483 Y3.9304
G1 X1.4697 Y3.9254
G1 X1.4568 Y3.9193
G1 X1.4442 Y3.9122
G1 X1.4322 Y3.904
G1 X1.4208 Y3.8948
G1 X1.4102 Y3.8846
G1 X1.4003 Y3.8736
G1 X1.3913 Y3.8618
G1 X1.3833 Y3.8493
G1 X1.3763 Y3.8361
G1 X1.3703 Y3.8223
G1 X1.3655 Y3.8081
G1 X1.3618 Y3.7935
G1 X1.3592 Y3.7787
G1 X1.3579 Y3.7636
G1 X1.3578 Y3.7485
G1 X1.3589 Y3.7334
G1 X1.3612 Y3.7184
G1 X1.3647 Y3.7036
G1 X1.3694 Y3.6892
G1 X1.3753 Y3.6752
G1 X1.3822 Y3.6616
G1 X1.3902 Y3.6487
G1 X1.3993 Y3.6365
G1 X1.4093 Y3.625
G1 X1.4202 Y3.6143
G1 X1.4319 Y3.6046
G1 X1.4443 Y3.5958
G1 X1.4575 Y3.588
G1 X1.4712 Y3.5813
G1 X1.4854 Y3.5758
G1 X1.5 Y3.5714
G1 X1.5149 Y3.5682
G1 X1.53 Y3.5662
G1 X1.5453 Y3.5654
G1 X1.5605 Y3.5658
G1 X1.5757 Y3.5675
G1 X1.5907 Y3.5703
G1 X1.6054 Y3.5744
G1 X1.6198 Y3.5797
G1 X1.6336 Y3.586
G1 X1.647 Y3.5935
G1 X1.6596 Y3.602
G1 X1.6716 Y3.6115
G1 X1.6828 Y3.6219
G1 X1.693 Y3.6332
G1 X1.7024 Y3.6453
G1 X1.7109 Y3.6584
G1 X1.7264 Y3.6869
G1 X1.7381 Y3.7133
G1 X1.7457 Y3.735
G1 X1.7508 Y3.7546
G1 X1.7541 Y3.773
G1 X1.7558 Y3.7909
G1 X1.7561 Y3.8082
G1 X1.755 Y3.825
G1 X1.7526 Y3.8414
G1 X1.7489 Y3.8575
G1 X1.7476 Y3.8618
G1 X1.7461 Y3.8658
G1 X1.7444 Y3.8697
G1 X1.7424 Y3.8734
G1 X1.7374 Y3.8822
G1 X1.7325 Y3.8903
G1 X1.7292 Y3.8942
G1 X1.7033 Y3.9229
G1 X1.6999 Y3.9263
G1 X1.6966 Y3.9288
G1 X1.6639 Y3.9525
G1 X1.6612 Y3.9542
G1 X1.6584 Y3.9556
G1 X1.6218 Y3.9719
G1 X1.6184 Y3.9732
G1 X1.615 Y3.9741
G1 X1.5742 Y3.9828
G1 X1.5701 Y3.9833
G1 X1.5661 Y3.9834
G1 X1.5253
G1 X1.5171 Y3.982
G1 X1.4845 Y3.9751
G1 X1.4763 Y3.9732
G1 X1.4731 Y3.9719
G1 X1.4356 Y3.9552
G1 X1.4315 Y3.9529
G1 X1.4111 Y3.9381
G1 X1.4014 Y3.9311
G1 X1.3948 Y3.9261
G1 X1.3916 Y3.9229
G1 X1.3695 Y3.8985
G1 X1.3624 Y3.8903
G1 X1.3621 Y3.89
G1 X1.3575 Y3.8822
G1 X1.3433 Y3.8577
G1 X1.3387 Y3.8495
G1 X1.3377 Y3.8471
G1 X1.3252 Y3.8087
G1 X1.3239 Y3.8047
G1 X1.3231 Y3.8006
G1 X1.3188 Y3.7598
G1 X1.3185 Y3.7557
G1 X1.3188 Y3.7517
G1 X1.3231 Y3.7109
G1 X1.3238 Y3.7068
G1 X1.3251 Y3.7027
G1 X1.3377 Y3.6641
G1 X1.3386 Y3.6619
G1 X1.3432 Y3.6538
G1 X1.3573 Y3.6293
G1 X1.3622 Y3.6212
G1 X1.3703 Y3.6119
G1 X1.3914 Y3.5885
G1 X1.3948 Y3.5851
G1 X1.4011 Y3.5804
G1 X1.4274 Y3.5613
G1 X1.4315 Y3.5583
G1 X1.4356 Y3.5561
G1 X1.4726 Y3.5396
G1 X1.4763 Y3.538
G1 X1.4845 Y3.5361
G1 X1.5171 Y3.5292
G1 X1.5253 Y3.5279
G1 X1.5661 Y3.5278
G1 X1.5701 Y3.5279
G1 X1.5742 Y3.5284
G1 X1.615 Y3.5371
G1 X1.6186 Y3.5381
G1 X1.6232 Y3.54
G1 X1.6589 Y3.5559
G1 X1.6614 Y3.5572
G1 X1.6639 Y3.5587
G1 X1.6966 Y3.5824
G1 X1.7 Y3.585
G1 X1.7035 Y3.5885
G1 X1.7292 Y3.6171
G1 X1.7327 Y3.6212
G1 X1.7375 Y3.6293
G1 X1.7537 Y3.6573
G1 X1.7563 Y3.6619
G1 X1.7592 Y3.6701
G1 X1.77 Y3.7034
G1 X1.7711 Y3.7072
G1 X1.7718 Y3.7109
G1 X1.7761 Y3.7517
G1 X1.7763 Y3.7557
G1 X1.776 Y3.7598
G1 X1.7717 Y3.8006
G1 X1.7711 Y3.8042
G1 X1.7697 Y3.8087
G1 X1.7591 Y3.8414
G1 X1.7562 Y3.8495
G1 X1.7537 Y3.854
G1 X1.7424 Y3.8734
G1 X1.7407 Y3.8758
G1 X1.7387 Y3.878
G1 X1.7363 Y3.8797 Z-0.236
G1 X1.7338 Y3.8814 Z-0.2355
G1 X1.7315 Y3.883 Z-0.2346
G1 X1.7284 Y3.8837 Z-0.2331
G1 X1.7255 Y3.8845 Z-0.2312
G1 X1.723 Y3.8851 Z-0.2289
G1 X1.7212 Y3.8852 Z-0.227
G1 X1.7193 Y3.8849 Z-0.2242
G1 X1.7177 Y3.8848 Z-0.2212
G1 X1.7166 Y3.8846 Z-0.218
G1 X1.7159 Z-0.2146
G1 X1.7157 Y3.8845 Z-0.2112
G0 Z0.1969
G0 X1.4665 Y3.8465
G0 Z-0.1378
G3 X1.487 Y3.65 Z-0.1458 I0.0809 J-0.0909 F10.9
G3 X1.6666 Y3.7319 Z-0.1539 I0.0603 J0.1055
G3 X1.532 Y3.8759 Z-0.162 I-0.1191 J0.0236
G3 X1.4384 Y3.7026 Z-0.17 I0.0155 J-0.1203
G3 X1.6323 Y3.6691 Z-0.1781 I0.109 J0.053
G3 X1.6023 Y3.8633 Z-0.1861 I-0.0848 J0.0863
G3 X1.428 Y3.7732 Z-0.1942 I-0.0548 J-0.1077
G3 X1.5687 Y3.6368 Z-0.2022 I0.1194 J-0.0176
G3 X1.6532 Y3.8134 Z-0.2103 I-0.0213 J0.1187
G3 X1.4591 Y3.8372 Z-0.2183 I-0.1056 J-0.0579
G3 X1.4982 Y3.6459 Z-0.2264 I0.0884 J-0.0816
G3 X1.667 Y3.7438 Z-0.2344 I0.0492 J0.1096
G3 X1.5206 Y3.8724 Z-0.2425 I-0.1195 J0.0117
G3 X1.4453 Y3.6929 Z-0.2505 I0.0269 J-0.1168
G3 X1.6392 Y3.6787 Z-0.2586 I0.1021 J0.0626
G3 X1.591 Y3.8668 Z-0.2666 I-0.0917 J0.0768
G3 X1.4282 Y3.7614 Z-0.2747 I-0.0435 J-0.1113
G3 X1.5798 Y3.6408 Z-0.2827 I0.1192 J-0.0058
G3 X1.6459 Y3.8227 Z-0.2908 I-0.0324 J0.1147
G3 X1.4526 Y3.8274 Z-0.2989 I-0.0983 J-0.0671
G3 X1.5096 Y3.6429 Z-0.3069 I0.0948 J-0.0718
G3 X1.6662 Y3.7555 Z-0.315 I0.0378 J0.1126
G3 X1.4286 I-0.1188 J0.
G3 X1.6662 I0.1188 J0.
G1 X1.6663 Y3.7645 F32.8
G1 X1.6724 Y3.7998
G1 X1.674 Y3.804
G1 X1.6757 Y3.8097
G1 X1.6767 Y3.8155
G1 X1.6772 Y3.8214
G1 Y3.8275
G1 X1.6766 Y3.8341
G1 X1.6755 Y3.841
G1 X1.6737 Y3.8483
G1 X1.6712 Y3.8559
G1 X1.6679 Y3.8636
G1 X1.6638 Y3.8714
G1 X1.6588 Y3.8793
G1 X1.653 Y3.8871
G1 X1.6462 Y3.8947
G1 X1.6386 Y3.902
G1 X1.6302 Y3.9089
G1 X1.6209 Y3.9154
G1 X1.6108 Y3.9212
G1 X1.6 Y3.9264
G1 X1.5885 Y3.9308
G1 X1.5764 Y3.9343
G1 X1.5638 Y3.9369
G1 X1.5507 Y3.9385
G1 X1.5374 Y3.9391
G1 X1.5239 Y3.9386
G1 X1.5102 Y3.937
G1 X1.4966 Y3.9343
G1 X1.483 Y3.9304
G1 X1.4697 Y3.9254
G1 X1.4568 Y3.9193
G1 X1.4442 Y3.9122
G1 X1.4322 Y3.904
G1 X1.4208 Y3.8948
G1 X1.4102 Y3.8846
G1 X1.4003 Y3.8736
G1 X1.3913 Y3.8618
G1 X1.3833 Y3.8493
G1 X1.3763 Y3.8361
G1 X1.3703 Y3.8223
G1 X1.3655 Y3.8081
G1 X1.3618 Y3.7935
G1 X1.3592 Y3.7787
G1 X1.3579 Y3.7636
G1 X1.3578 Y3.7485
G1 X1.3589 Y3.7334
G1 X1.3612 Y3.7184
G1 X1.3647 Y3.7036
G1 X1.3694 Y3.6892
G1 X1.3753 Y3.6752
G1 X1.3822 Y3.6616
G1 X1.3902 Y3.6487
G1 X1.3993 Y3.6365
G1 X1.4093 Y3.625
G1 X1.4202 Y3.6143
G1 X1.4319 Y3.6046
G1 X1.4443 Y3.5958
G1 X1.4575 Y3.588
G1 X1.4712 Y3.5813
G1 X1.4854 Y3.5758
G1 X1.5 Y3.5714
G1 X1.5149 Y3.5682
G1 X1.53 Y3.5662
G1 X1.5453 Y3.5654
G1 X1.5605 Y3.5658
G1 X1.5757 Y3.5675
G1 X1.5907 Y3.5703
G1 X1.6054 Y3.5744
G1 X1.6198 Y3.5797
G1 X1.6336 Y3.586
G1 X1.647 Y3.5935
G1 X1.6596 Y3.602
G1 X1.6716 Y3.6115
G1 X1.6828 Y3.6219
G1 X1.693 Y3.6332
G1 X1.7024 Y3.6453
G1 X1.7109 Y3.6584
G1 X1.7264 Y3.6869
G1 X1.7381 Y3.7133
G1 X1.7457 Y3.735
G1 X1.7508 Y3.7546
G1 X1.7541 Y3.773
G1 X1.7558 Y3.7909
G1 X1.7561 Y3.8082
G1 X1.755 Y3.825
G1 X1.7526 Y3.8414
G1 X1.7489 Y3.8575
G1 X1.7476 Y3.8618
G1 X1.7461 Y3.8658
G1 X1.7444 Y3.8697
G1 X1.7424 Y3.8734
G1 X1.7374 Y3.8822
G1 X1.7325 Y3.8903
G1 X1.7292 Y3.8942
G1 X1.7033 Y3.9229
G1 X1.6999 Y3.9263
G1 X1.6966 Y3.9288
G1 X1.6639 Y3.9525
G1 X1.6612 Y3.9542
G1 X1.6584 Y3.9556
G1 X1.6218 Y3.9719
G1 X1.6184 Y3.9732
G1 X1.615 Y3.9741
G1 X1.5742 Y3.9828
G1 X1.5701 Y3.9833
G1 X1.5661 Y3.9834
G1 X1.5253
G1 X1.5171 Y3.982
G1 X1.4845 Y3.9751
G1 X1.4763 Y3.9732
G1 X1.4731 Y3.9719
G1 X1.4356 Y3.9552
G1 X1.4315 Y3.9529
G1 X1.4111 Y3.9381
G1 X1.4014 Y3.9311
G1 X1.3948 Y3.9261
G1 X1.3916 Y3.9229
G1 X1.3695 Y3.8985
G1 X1.3624 Y3.8903
G1 X1.3621 Y3.89
G1 X1.3575 Y3.8822
G1 X1.3433 Y3.8577
G1 X1.3387 Y3.8495
G1 X1.3377 Y3.8471
G1 X1.3252 Y3.8087
G1 X1.3239 Y3.8047
G1 X1.3231 Y3.8006
G1 X1.3188 Y3.7598
G1 X1.3185 Y3.7557
G1 X1.3188 Y3.7517
G1 X1.3231 Y3.7109
G1 X1.3238 Y3.7068
G1 X1.3251 Y3.7027
G1 X1.3377 Y3.6641
G1 X1.3386 Y3.6619
G1 X1.3432 Y3.6538
G1 X1.3573 Y3.6293
G1 X1.3622 Y3.6212
G1 X1.3703 Y3.6119
G1 X1.3914 Y3.5885
G1 X1.3948 Y3.5851
G1 X1.4011 Y3.5804
G1 X1.4274 Y3.5613
G1 X1.4315 Y3.5583
G1 X1.4356 Y3.5561
G1 X1.4726 Y3.5396
G1 X1.4763 Y3.538
G1 X1.4845 Y3.5361
G1 X1.5171 Y3.5292
G1 X1.5253 Y3.5279
G1 X1.5661 Y3.5278
G1 X1.5701 Y3.5279
G1 X1.5742 Y3.5284
G1 X1.615 Y3.5371
G1 X1.6186 Y3.5381
G1 X1.6232 Y3.54
G1 X1.6589 Y3.5559
G1 X1.6614 Y3.5572
G1 X1.6639 Y3.5587
G1 X1.6966 Y3.5824
G1 X1.7 Y3.585
G1 X1.7035 Y3.5885
G1 X1.7292 Y3.6171
G1 X1.7327 Y3.6212
G1 X1.7375 Y3.6293
G1 X1.7537 Y3.6573
G1 X1.7563 Y3.6619
G1 X1.7592 Y3.6701
G1 X1.77 Y3.7034
G1 X1.7711 Y3.7072
G1 X1.7718 Y3.7109
G1 X1.7761 Y3.7517
G1 X1.7763 Y3.7557
G1 X1.776 Y3.7598
G1 X1.7717 Y3.8006
G1 X1.7711 Y3.8042
G1 X1.7697 Y3.8087
G1 X1.7591 Y3.8414
G1 X1.7562 Y3.8495
G1 X1.7537 Y3.854
G1 X1.7424 Y3.8734
G1 X1.7407 Y3.8758
G1 X1.7387 Y3.878
G1 X1.7363 Y3.8797 Z-0.3148
G1 X1.7338 Y3.8814 Z-0.3142
G1 X1.7315 Y3.883 Z-0.3133
G1 X1.7284 Y3.8837 Z-0.3119
G1 X1.7255 Y3.8845 Z-0.3099
G1 X1.723 Y3.8851 Z-0.3076
G1 X1.7212 Y3.8852 Z-0.3057
G1 X1.7193 Y3.8849 Z-0.303
G1 X1.7177 Y3.8848 Z-0.2999
G1 X1.7166 Y3.8846 Z-0.2967
G1 X1.7159 Z-0.2934
G1 X1.7157 Y3.8845 Z-0.29
G0 Z0.1969
G0 X1.4665 Y3.8465
G0 Z-0.2165
G3 X1.487 Y3.65 Z-0.2246 I0.0809 J-0.0909 F10.9
G3 X1.6666 Y3.7319 Z-0.2326 I0.0603 J0.1055
G3 X1.532 Y3.8759 Z-0.2407 I-0.1191 J0.0236
G3 X1.4384 Y3.7026 Z-0.2487 I0.0155 J-0.1203
G3 X1.6323 Y3.6691 Z-0.2568 I0.109 J0.053
G3 X1.6023 Y3.8633 Z-0.2649 I-0.0848 J0.0863
G3 X1.428 Y3.7732 Z-0.2729 I-0.0548 J-0.1077
G3 X1.5687 Y3.6368 Z-0.281 I0.1194 J-0.0176
G3 X1.6532 Y3.8134 Z-0.289 I-0.0213 J0.1187
G3 X1.4591 Y3.8372 Z-0.2971 I-0.1056 J-0.0579
G3 X1.4982 Y3.6459 Z-0.3051 I0.0884 J-0.0816
G3 X1.667 Y3.7438 Z-0.3132 I0.0492 J0.1096
G3 X1.5206 Y3.8724 Z-0.3212 I-0.1195 J0.0117
G3 X1.4453 Y3.6929 Z-0.3293 I0.0269 J-0.1168
G3 X1.6392 Y3.6787 Z-0.3373 I0.1021 J0.0626
G3 X1.591 Y3.8668 Z-0.3454 I-0.0917 J0.0768
G3 X1.4282 Y3.7614 Z-0.3534 I-0.0435 J-0.1113
G3 X1.5798 Y3.6408 Z-0.3615 I0.1192 J-0.0058
G3 X1.6459 Y3.8227 Z-0.3695 I-0.0324 J0.1147
G3 X1.4526 Y3.8274 Z-0.3776 I-0.0983 J-0.0671
G3 X1.5096 Y3.6429 Z-0.3856 I0.0948 J-0.0718
G3 X1.6662 Y3.7555 Z-0.3937 I0.0378 J0.1126
G3 X1.4286 I-0.1188 J0.
G3 X1.6662 I0.1188 J0.
G1 X1.6663 Y3.7645 F32.8
G1 X1.6724 Y3.7998
G1 X1.674 Y3.804
G1 X1.6757 Y3.8097
G1 X1.6767 Y3.8155
G1 X1.6772 Y3.8214
G1 Y3.8275
G1 X1.6766 Y3.8341
G1 X1.6755 Y3.841
G1 X1.6737 Y3.8483
G1 X1.6712 Y3.8559
G1 X1.6679 Y3.8636
G1 X1.6638 Y3.8714
G1 X1.6588 Y3.8793
G1 X1.653 Y3.8871
G1 X1.6462 Y3.8947
G1 X1.6386 Y3.902
G1 X1.6302 Y3.9089
G1 X1.6209 Y3.9154
G1 X1.6108 Y3.9212
G1 X1.6 Y3.9264
G1 X1.5885 Y3.9308
G1 X1.5764 Y3.9343
G1 X1.5638 Y3.9369
G1 X1.5507 Y3.9385
G1 X1.5374 Y3.9391
G1 X1.5239 Y3.9386
G1 X1.5102 Y3.937
G1 X1.4966 Y3.9343
G1 X1.483 Y3.9304
G1 X1.4697 Y3.9254
G1 X1.4568 Y3.9193
G1 X1.4442 Y3.9122
G1 X1.4322 Y3.904
G1 X1.4208 Y3.8948
G1 X1.4102 Y3.8846
G1 X1.4003 Y3.8736
G1 X1.3913 Y3.8618
G1 X1.3833 Y3.8493
G1 X1.3763 Y3.8361
G1 X1.3703 Y3.8223
G1 X1.3655 Y3.8081
G1 X1.3618 Y3.7935
G1 X1.3592 Y3.7787
G1 X1.3579 Y3.7636
G1 X1.3578 Y3.7485
G1 X1.3589 Y3.7334
G1 X1.3612 Y3.7184
G1 X1.3647 Y3.7036
G1 X1.3694 Y3.6892
G1 X1.3753 Y3.6752
G1 X1.3822 Y3.6616
G1 X1.3902 Y3.6487
G1 X1.3993 Y3.6365
G1 X1.4093 Y3.625
G1 X1.4202 Y3.6143
G1 X1.4319 Y3.6046
G1 X1.4443 Y3.5958
G1 X1.4575 Y3.588
G1 X1.4712 Y3.5813
G1 X1.4854 Y3.5758
G1 X1.5 Y3.5714
G1 X1.5149 Y3.5682
G1 X1.53 Y3.5662
G1 X1.5453 Y3.5654
G1 X1.5605 Y3.5658
G1 X1.5757 Y3.5675
G1 X1.5907 Y3.5703
G1 X1.6054 Y3.5744
G1 X1.6198 Y3.5797
G1 X1.6336 Y3.586
G1 X1.647 Y3.5935
G1 X1.6596 Y3.602
G1 X1.6716 Y3.6115
G1 X1.6828 Y3.6219
G1 X1.693 Y3.6332
G1 X1.7024 Y3.6453
G1 X1.7109 Y3.6584
G1 X1.7264 Y3.6869
G1 X1.7381 Y3.7133
G1 X1.7457 Y3.735
G1 X1.7508 Y3.7546
G1 X1.7541 Y3.773
G1 X1.7558 Y3.7909
G1 X1.7561 Y3.8082
G1 X1.755 Y3.825
G1 X1.7526 Y3.8414
G1 X1.7489 Y3.8575
G1 X1.7476 Y3.8618
G1 X1.7461 Y3.8658
G1 X1.7444 Y3.8697
G1 X1.7424 Y3.8734
G1 X1.7374 Y3.8822
G1 X1.7325 Y3.8903
G1 X1.7292 Y3.8942
G1 X1.7033 Y3.9229
G1 X1.6999 Y3.9263
G1 X1.6966 Y3.9288
G1 X1.6639 Y3.9525
G1 X1.6612 Y3.9542
G1 X1.6584 Y3.9556
G1 X1.6218 Y3.9719
G1 X1.6184 Y3.9732
G1 X1.615 Y3.9741
G1 X1.5742 Y3.9828
G1 X1.5701 Y3.9833
G1 X1.5661 Y3.9834
G1 X1.5253
G1 X1.5171 Y3.982
G1 X1.4845 Y3.9751
G1 X1.4763 Y3.9732
G1 X1.4731 Y3.9719
G1 X1.4356 Y3.9552
G1 X1.4315 Y3.9529
G1 X1.4111 Y3.9381
G1 X1.4014 Y3.9311
G1 X1.3948 Y3.9261
G1 X1.3916 Y3.9229
G1 X1.3695 Y3.8985
G1 X1.3624 Y3.8903
G1 X1.3621 Y3.89
G1 X1.3575 Y3.8822
G1 X1.3433 Y3.8577
G1 X1.3387 Y3.8495
G1 X1.3377 Y3.8471
G1 X1.3252 Y3.8087
G1 X1.3239 Y3.8047
G1 X1.3231 Y3.8006
G1 X1.3188 Y3.7598
G1 X1.3185 Y3.7557
G1 X1.3188 Y3.7517
G1 X1.3231 Y3.7109
G1 X1.3238 Y3.7068
G1 X1.3251 Y3.7027
G1 X1.3377 Y3.6641
G1 X1.3386 Y3.6619
G1 X1.3432 Y3.6538
G1 X1.3573 Y3.6293
G1 X1.3622 Y3.6212
G1 X1.3703 Y3.6119
G1 X1.3914 Y3.5885
G1 X1.3948 Y3.5851
G1 X1.4011 Y3.5804
G1 X1.4274 Y3.5613
G1 X1.4315 Y3.5583
G1 X1.4356 Y3.5561
G1 X1.4726 Y3.5396
G1 X1.4763 Y3.538
G1 X1.4845 Y3.5361
G1 X1.5171 Y3.5292
G1 X1.5253 Y3.5279
G1 X1.5661 Y3.5278
G1 X1.5701 Y3.5279
G1 X1.5742 Y3.5284
G1 X1.615 Y3.5371
G1 X1.6186 Y3.5381
G1 X1.6232 Y3.54
G1 X1.6589 Y3.5559
G1 X1.6614 Y3.5572
G1 X1.6639 Y3.5587
G1 X1.6966 Y3.5824
G1 X1.7 Y3.585
G1 X1.7035 Y3.5885
G1 X1.7292 Y3.6171
G1 X1.7327 Y3.6212
G1 X1.7375 Y3.6293
G1 X1.7537 Y3.6573
G1 X1.7563 Y3.6619
G1 X1.7592 Y3.6701
G1 X1.77 Y3.7034
G1 X1.7711 Y3.7072
G1 X1.7718 Y3.7109
G1 X1.7761 Y3.7517
G1 X1.7763 Y3.7557
G1 X1.776 Y3.7598
G1 X1.7717 Y3.8006
G1 X1.7711 Y3.8042
G1 X1.7697 Y3.8087
G1 X1.7591 Y3.8414
G1 X1.7562 Y3.8495
G1 X1.7537 Y3.854
G1 X1.7424 Y3.8734
G1 X1.7407 Y3.8758
G1 X1.7387 Y3.878
G1 X1.7363 Y3.8797 Z-0.3935
G1 X1.7338 Y3.8814 Z-0.393
G1 X1.7315 Y3.883 Z-0.3921
G1 X1.7284 Y3.8837 Z-0.3906
G1 X1.7255 Y3.8845 Z-0.3887
G1 X1.723 Y3.8851 Z-0.3864
G1 X1.7212 Y3.8852 Z-0.3845
G1 X1.7193 Y3.8849 Z-0.3817
G1 X1.7177 Y3.8848 Z-0.3787
G1 X1.7166 Y3.8846 Z-0.3755
G1 X1.7159 Z-0.3721
G1 X1.7157 Y3.8845 Z-0.3687
G0 Z0.1969
G0 X1.5927 Y3.6434
G0 Z-0.2953
G3 X1.6457 Y3.8263 Z-0.3029 I-0.0452 J0.1123 F10.9
G3 X1.4556 Y3.8342 Z-0.3106 I-0.0981 J-0.0706
G3 X1.4932 Y3.6479 Z-0.3182 I0.0918 J-0.0784
G3 X1.665 Y3.7287 Z-0.3259 I0.0542 J0.1078
G3 X1.5457 Y3.8761 Z-0.3336 I-0.1174 J0.027
G3 X1.4311 Y3.7254 Z-0.3412 I0.0018 J-0.1203
G3 X1.6046 Y3.65 Z-0.3489 I0.1163 J0.0304
G3 X1.6364 Y3.8363 Z-0.3565 I-0.0571 J0.1056
G3 X1.4481 Y3.8228 Z-0.3642 I-0.0889 J-0.0806
G3 X1.506 Y3.6434 Z-0.3718 I0.0993 J-0.0671
G3 X1.6663 Y3.7422 Z-0.3795 I0.0414 J0.1123
G3 X1.5323 Y3.8742 Z-0.3871 I-0.1188 J0.0135
G3 X1.4361 Y3.7128 Z-0.3948 I0.0152 J-0.1185
G3 X1.6156 Y3.6579 Z-0.4024 I0.1113 J0.0429
G3 X1.6262 Y3.8451 Z-0.4101 I-0.0681 J0.0978
G3 X1.442 Y3.8108 Z-0.4178 I-0.0786 J-0.0894
G3 X1.5191 Y3.6403 Z-0.4254 I0.1054 J-0.055
G3 X1.6662 Y3.7557 Z-0.4331 I0.0283 J0.1153
G3 X1.4287 I-0.1188 J0.
G3 X1.6662 I0.1188 J0.
G1 X1.6663 Y3.7646 F32.8
G1 X1.6724 Y3.8
G1 X1.674 Y3.8042
G1 X1.6757 Y3.8099
G1 X1.6767 Y3.8157
G1 X1.6772 Y3.8216
G1 Y3.8277
G1 X1.6766 Y3.8342
G1 X1.6755 Y3.8412
G1 X1.6737 Y3.8485
G1 X1.6712 Y3.856
G1 X1.6679 Y3.8638
G1 X1.6638 Y3.8716
G1 X1.6588 Y3.8795
G1 X1.653 Y3.8872
G1 X1.6463 Y3.8948
G1 X1.6387 Y3.9022
G1 X1.6302 Y3.9091
G1 X1.6209 Y3.9155
G1 X1.6108 Y3.9214
G1 X1.6 Y3.9266
G1 X1.5885 Y3.9309
G1 X1.5764 Y3.9345
G1 X1.5638 Y3.9371
G1 X1.5508 Y3.9387
G1 X1.5374 Y3.9393
G1 X1.5239 Y3.9388
G1 X1.5102 Y3.9372
G1 X1.4966 Y3.9344
G1 X1.4831 Y3.9306
G1 X1.4697 Y3.9256
G1 X1.4568 Y3.9195
G1 X1.4442 Y3.9123
G1 X1.4322 Y3.9041
G1 X1.4208 Y3.8949
G1 X1.4102 Y3.8848
G1 X1.4003 Y3.8738
G1 X1.3913 Y3.862
G1 X1.3833 Y3.8494
G1 X1.3763 Y3.8362
G1 X1.3703 Y3.8225
G1 X1.3655 Y3.8083
G1 X1.3618 Y3.7937
G1 X1.3593 Y3.7788
G1 X1.3579 Y3.7638
G1 X1.3578 Y3.7487
G1 X1.3589 Y3.7335
G1 X1.3612 Y3.7186
G1 X1.3648 Y3.7038
G1 X1.3695 Y3.6894
G1 X1.3753 Y3.6753
G1 X1.3822 Y3.6618
G1 X1.3903 Y3.6489
G1 X1.3993 Y3.6366
G1 X1.4093 Y3.6251
G1 X1.4202 Y3.6145
G1 X1.4319 Y3.6047
G1 X1.4444 Y3.5959
G1 X1.4575 Y3.5882
G1 X1.4712 Y3.5815
G1 X1.4854 Y3.5759
G1 X1.5 Y3.5715
G1 X1.5149 Y3.5683
G1 X1.5301 Y3.5663
G1 X1.5453 Y3.5655
G1 X1.5606 Y3.566
G1 X1.5757 Y3.5676
G1 X1.5907 Y3.5705
G1 X1.6054 Y3.5746
G1 X1.6198 Y3.5798
G1 X1.6337 Y3.5862
G1 X1.647 Y3.5937
G1 X1.6597 Y3.6022
G1 X1.6716 Y3.6117
G1 X1.6828 Y3.6221
G1 X1.6931 Y3.6334
G1 X1.7024 Y3.6455
G1 X1.711 Y3.6586
G1 X1.7264 Y3.6871
G1 X1.7381 Y3.7134
G1 X1.7457 Y3.7351
G1 X1.7508 Y3.7547
G1 X1.7541 Y3.7732
G1 X1.7558 Y3.791
G1 X1.7561 Y3.8083
G1 X1.755 Y3.8252
G1 X1.7526 Y3.8416
G1 X1.7489 Y3.8577
G1 X1.7477 Y3.8616
G1 X1.7463 Y3.8655
G1 X1.7446 Y3.8694
G1 X1.7426 Y3.8732
G1 X1.7374 Y3.8822
G1 X1.7325 Y3.8903
G1 X1.7292 Y3.8942
G1 X1.7033 Y3.9229
G1 X1.6999 Y3.9263
G1 X1.6966 Y3.9288
G1 X1.6639 Y3.9525
G1 X1.6612 Y3.9542
G1 X1.6584 Y3.9556
G1 X1.6218 Y3.9719
G1 X1.6184 Y3.9732
G1 X1.615 Y3.9741
G1 X1.5742 Y3.9828
G1 X1.5701 Y3.9833
G1 X1.5661 Y3.9834
G1 X1.5253
G1 X1.5171 Y3.982
G1 X1.4845 Y3.9751
G1 X1.4763 Y3.9732
G1 X1.4731 Y3.9719
G1 X1.4356 Y3.9552
G1 X1.4315 Y3.9529
G1 X1.4111 Y3.9381
G1 X1.4014 Y3.9311
G1 X1.3948 Y3.9261
G1 X1.3916 Y3.9229
G1 X1.3695 Y3.8985
G1 X1.3624 Y3.8903
G1 X1.3621 Y3.89
G1 X1.3575 Y3.8822
G1 X1.3433 Y3.8577
G1 X1.3387 Y3.8495
G1 X1.3377 Y3.8471
G1 X1.3252 Y3.8087
G1 X1.3239 Y3.8047
G1 X1.3231 Y3.8006
G1 X1.3188 Y3.7598
G1 X1.3185 Y3.7557
G1 X1.3188 Y3.7517
G1 X1.3231 Y3.7109
G1 X1.3238 Y3.7068
G1 X1.3251 Y3.7027
G1 X1.3377 Y3.6641
G1 X1.3386 Y3.6619
G1 X1.3432 Y3.6538
G1 X1.3573 Y3.6293
G1 X1.3622 Y3.6212
G1 X1.3703 Y3.6119
G1 X1.3914 Y3.5885
G1 X1.3948 Y3.5851
G1 X1.4011 Y3.5804
G1 X1.4274 Y3.5613
G1 X1.4315 Y3.5583
G1 X1.4356 Y3.5561
G1 X1.4726 Y3.5396
G1 X1.4763 Y3.538
G1 X1.4845 Y3.5361
G1 X1.5171 Y3.5292
G1 X1.5253 Y3.5279
G1 X1.5661 Y3.5278
G1 X1.5701 Y3.5279
G1 X1.5742 Y3.5284
G1 X1.615 Y3.5371
G1 X1.6186 Y3.5381
G1 X1.6232 Y3.54
G1 X1.6589 Y3.5559
G1 X1.6614 Y3.5572
G1 X1.6639 Y3.5587
G1 X1.6966 Y3.5824
G1 X1.7 Y3.585
G1 X1.7035 Y3.5885
G1 X1.7292 Y3.6171
G1 X1.7327 Y3.6212
G1 X1.7375 Y3.6293
G1 X1.7537 Y3.6573
G1 X1.7563 Y3.6619
G1 X1.7592 Y3.6701
G1 X1.77 Y3.7034
G1 X1.7711 Y3.7072
G1 X1.7718 Y3.7109
G1 X1.7761 Y3.7517
G1 X1.7763 Y3.7557
G1 X1.776 Y3.7598
G1 X1.7717 Y3.8006
G1 X1.7711 Y3.8042
G1 X1.7697 Y3.8087
G1 X1.7591 Y3.8414
G1 X1.7562 Y3.8495
G1 X1.7537 Y3.854
G1 X1.7426 Y3.8732
G3 X1.7158 Y3.8843 I-0.0212 J-0.0132
G1 X1.712 Y3.8834 Z-0.4328
G1 X1.7083 Y3.8826 Z-0.4318
G1 X1.7048 Y3.8818 Z-0.4303
G1 X1.7015 Y3.881 Z-0.4283
G1 X1.6986 Y3.8803 Z-0.4257
G1 X1.6961 Y3.8798 Z-0.4228
G1 X1.6941 Y3.8793 Z-0.4194
G1 X1.6927 Y3.879 Z-0.4158
G1 X1.6918 Y3.8788 Z-0.412
G1 X1.6915 Y3.8787 Z-0.4081
G0 Z0.5906

N30(2D Adaptive5)
S9000 M3 M8
G0 X3.516 Y1.7871
G0 Z0.5906
G0 Z0.1969
G0 Z0.0984
G1 Z-0.0787 F10.9
G1 X3.5171 Y1.7862 F32.8
G1 X3.5178 Y1.7875
G1 X3.5171 Y1.7889
G1 X3.5158 Y1.7894
G1 X3.5144 Y1.789
G1 X3.5135 Y1.7878
G1 X3.5132 Y1.7864
G1 X3.5134 Y1.7849
G1 X3.5142 Y1.7837
G1 X3.5154 Y1.7828
G1 X3.5168 Y1.7824
G1 X3.5183 Y1.7825
G1 X3.5197 Y1.7829
G1 X3.5221 Y1.7846
G1 X3.5235 Y1.7872
G1 X3.5236 Y1.7902
G1 X3.5226 Y1.793
G1 X3.5208 Y1.7953
G1 X3.5183 Y1.7968
G1 X3.5154 Y1.7976
G1 X3.5095 Y1.7973
G1 X3.5045 Y1.7942
G1 X3.5013 Y1.7892
G1 X3.5004 Y1.7834
G1 X3.5016 Y1.7776
G1 X3.5047 Y1.7726
G1 X3.5093 Y1.7688
G1 X3.5147 Y1.7665
G1 X3.5206 Y1.7659
G1 X3.5264 Y1.7668
G1 X3.5318 Y1.7691
G1 X3.5365 Y1.7728
G1 X3.5401 Y1.7774
G1 X3.5426 Y1.7828
G1 X3.5439 Y1.7885
G1 Y1.7944
G1 X3.5427 Y1.8002
G1 X3.5404 Y1.8056
G1 X3.5371 Y1.8105
G1 X3.533 Y1.8148
G1 X3.5281 Y1.8181
G1 X3.5228 Y1.8207
G1 X3.5171 Y1.8223
G1 X3.5112 Y1.8228
G1 X3.5053 Y1.8225
G1 X3.4996 Y1.8212
G1 X3.4941 Y1.8191
G1 X3.4889 Y1.8161
G1 X3.4843 Y1.8124
G1 X3.4803 Y1.8081
G1 X3.4769 Y1.8033
G1 X3.4742 Y1.798
G1 X3.4723 Y1.7924
G1 X3.4711 Y1.7866
G1 X3.4707 Y1.7808
G1 X3.4711 Y1.7749
G1 X3.4722 Y1.7691
G1 X3.474 Y1.7634
G1 X3.4766 Y1.7581
G1 X3.4797 Y1.7531
G1 X3.4834 Y1.7485
G1 X3.4876 Y1.7443
G1 X3.4922 Y1.7407
G1 X3.4973 Y1.7376
G1 X3.5026 Y1.7351
G1 X3.5082 Y1.7332
G1 X3.5139 Y1.7319
G1 X3.5198 Y1.7312
G1 X3.5257 Y1.7311
G1 X3.5316 Y1.7317
G1 X3.5374 Y1.7329
G1 X3.543 Y1.7346
G1 X3.5485 Y1.7369
G1 X3.5537 Y1.7397
G1 X3.5585 Y1.7431
G1 X3.5631 Y1.7468
G1 X3.5672 Y1.751
G1 X3.571 Y1.7556
G1 X3.5743 Y1.7605
G1 X3.5771 Y1.7657
G1 X3.5794 Y1.7711
G1 X3.5812 Y1.7767
G1 X3.5826 Y1.7825
G1 X3.5834 Y1.7883
G1 X3.5837 Y1.7942
G1 X3.5835 Y1.8001
G1 X3.5827 Y1.806
G1 X3.5815 Y1.8118
G1 X3.5803 Y1.8158
G1 X3.5796 Y1.8176
G1 X3.5789 Y1.8195
G1 X3.5777 Y1.8224
G1 X3.5775 Y1.8228
G1 X3.5664 Y1.8372
G1 X3.5658 Y1.8378
G1 X3.5516 Y1.8487
G1 X3.5512 Y1.8489
G1 X3.5346 Y1.8557
G1 X3.5341 Y1.8559
G1 X3.5166 Y1.8582
G1 X3.5159 Y1.8583
G1 X3.4982 Y1.8559
G1 X3.4974 Y1.8558
G1 X3.4803 Y1.8487
G1 X3.4658 Y1.8376
G1 X3.4653 Y1.837
G1 X3.4544 Y1.8228
G1 X3.4542 Y1.8224
G1 X3.4473 Y1.8058
G1 X3.4472 Y1.8054
G1 X3.4448 Y1.7872
G1 Y1.7868
G1 X3.4472 Y1.769
G1 Y1.7686
G1 X3.4542 Y1.7517
G1 X3.4545 Y1.7512
G1 X3.4653 Y1.7372
G1 X3.4658 Y1.7367
G1 X3.4803 Y1.7255
G1 X3.4918 Y1.7208
G1 X3.4973 Y1.7185
G1 X3.498 Y1.7183
G1 X3.5153 Y1.716
G1 X3.516
G1 X3.5339 Y1.7183
G1 X3.5345 Y1.7184
G1 X3.5512 Y1.7253
G1 X3.5516 Y1.7256
G1 X3.5658 Y1.7364
G1 X3.5664 Y1.737
G1 X3.5774 Y1.7512
G1 X3.5776 Y1.7517
G1 X3.5846 Y1.7686
G1 X3.5848 Y1.7699
G1 X3.5871 Y1.7868
G1 Y1.7872
G1 X3.5847 Y1.8054
G1 X3.5844 Y1.8063
G1 X3.5789 Y1.8195
G1 X3.5775 Y1.8221
G1 X3.5758 Y1.8245
G1 X3.5736 Y1.8265 Z-0.0786
G1 X3.5714 Y1.8285 Z-0.078
G1 X3.5693 Y1.8304 Z-0.0771
G1 X3.5663 Y1.8316 Z-0.0756
G1 X3.5636 Y1.8326 Z-0.0737
G1 X3.5611 Y1.8336 Z-0.0714
G1 X3.5592 Y1.8338 Z-0.0692
G1 X3.5575 Y1.834 Z-0.0669
G1 X3.5562 Y1.8341 Z-0.0643
G1 X3.5549 Y1.834 Z-0.0609
G1 X3.5541 Z-0.0574
G1 X3.5538 Z-0.0537
G0 Z0.1969
G0 X3.516 Y1.7871
G0 Z0.0197
G1 Z-0.1575 F10.9
G1 X3.5171 Y1.7862 F32.8
G1 X3.5178 Y1.7875
G1 X3.5171 Y1.7889
G1 X3.5158 Y1.7894
G1 X3.5144 Y1.789
G1 X3.5135 Y1.7878
G1 X3.5132 Y1.7864
G1 X3.5134 Y1.7849
G1 X3.5142 Y1.7837
G1 X3.5154 Y1.7828
G1 X3.5168 Y1.7824
G1 X3.5183 Y1.7825
G1 X3.5197 Y1.7829
G1 X3.5221 Y1.7846
G1 X3.5235 Y1.7872
G1 X3.5236 Y1.7902
G1 X3.5226 Y1.793
G1 X3.5208 Y1.7953
G1 X3.5183 Y1.7968
G1 X3.5154 Y1.7976
G1 X3.5095 Y1.7973
G1 X3.5045 Y1.7942
G1 X3.5013 Y1.7892
G1 X3.5004 Y1.7834
G1 X3.5016 Y1.7776
G1 X3.5047 Y1.7726
G1 X3.5093 Y1.7688
G1 X3.5147 Y1.7665
G1 X3.5206 Y1.7659
G1 X3.5264 Y1.7668
G1 X3.5318 Y1.7691
G1 X3.5365 Y1.7728
G1 X3.5401 Y1.7774
G1 X3.5426 Y1.7828
G1 X3.5439 Y1.7885
G1 Y1.7944
G1 X3.5427 Y1.8002
G1 X3.5404 Y1.8056
G1 X3.5371 Y1.8105
G1 X3.533 Y1.8148
G1 X3.5281 Y1.8181
G1 X3.5228 Y1.8207
G1 X3.5171 Y1.8223
G1 X3.5112 Y1.8228
G1 X3.5053 Y1.8225
G1 X3.4996 Y1.8212
G1 X3.4941 Y1.8191
G1 X3.4889 Y1.8161
G1 X3.4843 Y1.8124
G1 X3.4803 Y1.8081
G1 X3.4769 Y1.8033
G1 X3.4742 Y1.798
G1 X3.4723 Y1.7924
G1 X3.4711 Y1.7866
G1 X3.4707 Y1.7808
G1 X3.4711 Y1.7749
G1 X3.4722 Y1.7691
G1 X3.474 Y1.7634
G1 X3.4766 Y1.7581
G1 X3.4797 Y1.7531
G1 X3.4834 Y1.7485
G1 X3.4876 Y1.7443
G1 X3.4922 Y1.7407
G1 X3.4973 Y1.7376
G1 X3.5026 Y1.7351
G1 X3.5082 Y1.7332
G1 X3.5139 Y1.7319
G1 X3.5198 Y1.7312
G1 X3.5257 Y1.7311
G1 X3.5316 Y1.7317
G1 X3.5374 Y1.7329
G1 X3.543 Y1.7346
G1 X3.5485 Y1.7369
G1 X3.5537 Y1.7397
G1 X3.5585 Y1.7431
G1 X3.5631 Y1.7468
G1 X3.5672 Y1.751
G1 X3.571 Y1.7556
G1 X3.5743 Y1.7605
G1 X3.5771 Y1.7657
G1 X3.5794 Y1.7711
G1 X3.5812 Y1.7767
G1 X3.5826 Y1.7825
G1 X3.5834 Y1.7883
G1 X3.5837 Y1.7942
G1 X3.5835 Y1.8001
G1 X3.5827 Y1.806
G1 X3.5815 Y1.8118
G1 X3.5803 Y1.8158
G1 X3.5796 Y1.8176
G1 X3.5789 Y1.8195
G1 X3.5777 Y1.8224
G1 X3.5775 Y1.8228
G1 X3.5664 Y1.8372
G1 X3.5658 Y1.8378
G1 X3.5516 Y1.8487
G1 X3.5512 Y1.8489
G1 X3.5346 Y1.8557
G1 X3.5341 Y1.8559
G1 X3.5166 Y1.8582
G1 X3.5159 Y1.8583
G1 X3.4982 Y1.8559
G1 X3.4974 Y1.8558
G1 X3.4803 Y1.8487
G1 X3.4658 Y1.8376
G1 X3.4653 Y1.837
G1 X3.4544 Y1.8228
G1 X3.4542 Y1.8224
G1 X3.4473 Y1.8058
G1 X3.4472 Y1.8054
G1 X3.4448 Y1.7872
G1 Y1.7868
G1 X3.4472 Y1.769
G1 Y1.7686
G1 X3.4542 Y1.7517
G1 X3.4545 Y1.7512
G1 X3.4653 Y1.7372
G1 X3.4658 Y1.7367
G1 X3.4803 Y1.7255
G1 X3.4918 Y1.7208
G1 X3.4973 Y1.7185
G1 X3.498 Y1.7183
G1 X3.5153 Y1.716
G1 X3.516
G1 X3.5339 Y1.7183
G1 X3.5345 Y1.7184
G1 X3.5512 Y1.7253
G1 X3.5516 Y1.7256
G1 X3.5658 Y1.7364
G1 X3.5664 Y1.737
G1 X3.5774 Y1.7512
G1 X3.5776 Y1.7517
G1 X3.5846 Y1.7686
G1 X3.5848 Y1.7699
G1 X3.5871 Y1.7868
G1 Y1.7872
G1 X3.5847 Y1.8054
G1 X3.5844 Y1.8063
G1 X3.5789 Y1.8195
G1 X3.5775 Y1.8221
G1 X3.5758 Y1.8245
G1 X3.5736 Y1.8265 Z-0.1573
G1 X3.5714 Y1.8285 Z-0.1568
G1 X3.5693 Y1.8304 Z-0.1559
G1 X3.5663 Y1.8316 Z-0.1544
G1 X3.5636 Y1.8326 Z-0.1525
G1 X3.5611 Y1.8336 Z-0.1502
G1 X3.5592 Y1.8338 Z-0.148
G1 X3.5575 Y1.834 Z-0.1456
G1 X3.5562 Y1.8341 Z-0.143
G1 X3.5549 Y1.834 Z-0.1396
G1 X3.5541 Z-0.1361
G1 X3.5538 Z-0.1325
G0 Z0.1969
G0 X3.516 Y1.7871
G0 Z-0.0591
G1 Z-0.2362 F10.9
G1 X3.5171 Y1.7862 F32.8
G1 X3.5178 Y1.7875
G1 X3.5171 Y1.7889
G1 X3.5158 Y1.7894
G1 X3.5144 Y1.789
G1 X3.5135 Y1.7878
G1 X3.5132 Y1.7864
G1 X3.5134 Y1.7849
G1 X3.5142 Y1.7837
G1 X3.5154 Y1.7828
G1 X3.5168 Y1.7824
G1 X3.5183 Y1.7825
G1 X3.5197 Y1.7829
G1 X3.5221 Y1.7846
G1 X3.5235 Y1.7872
G1 X3.5236 Y1.7902
G1 X3.5226 Y1.793
G1 X3.5208 Y1.7953
G1 X3.5183 Y1.7968
G1 X3.5154 Y1.7976
G1 X3.5095 Y1.7973
G1 X3.5045 Y1.7942
G1 X3.5013 Y1.7892
G1 X3.5004 Y1.7834
G1 X3.5016 Y1.7776
G1 X3.5047 Y1.7726
G1 X3.5093 Y1.7688
G1 X3.5147 Y1.7665
G1 X3.5206 Y1.7659
G1 X3.5264 Y1.7668
G1 X3.5318 Y1.7691
G1 X3.5365 Y1.7728
G1 X3.5401 Y1.7774
G1 X3.5426 Y1.7828
G1 X3.5439 Y1.7885
G1 Y1.7944
G1 X3.5427 Y1.8002
G1 X3.5404 Y1.8056
G1 X3.5371 Y1.8105
G1 X3.533 Y1.8148
G1 X3.5281 Y1.8181
G1 X3.5228 Y1.8207
G1 X3.5171 Y1.8223
G1 X3.5112 Y1.8228
G1 X3.5053 Y1.8225
G1 X3.4996 Y1.8212
G1 X3.4941 Y1.8191
G1 X3.4889 Y1.8161
G1 X3.4843 Y1.8124
G1 X3.4803 Y1.8081
G1 X3.4769 Y1.8033
G1 X3.4742 Y1.798
G1 X3.4723 Y1.7924
G1 X3.4711 Y1.7866
G1 X3.4707 Y1.7808
G1 X3.4711 Y1.7749
G1 X3.4722 Y1.7691
G1 X3.474 Y1.7634
G1 X3.4766 Y1.7581
G1 X3.4797 Y1.7531
G1 X3.4834 Y1.7485
G1 X3.4876 Y1.7443
G1 X3.4922 Y1.7407
G1 X3.4973 Y1.7376
G1 X3.5026 Y1.7351
G1 X3.5082 Y1.7332
G1 X3.5139 Y1.7319
G1 X3.5198 Y1.7312
G1 X3.5257 Y1.7311
G1 X3.5316 Y1.7317
G1 X3.5374 Y1.7329
G1 X3.543 Y1.7346
G1 X3.5485 Y1.7369
G1 X3.5537 Y1.7397
G1 X3.5585 Y1.7431
G1 X3.5631 Y1.7468
G1 X3.5672 Y1.751
G1 X3.571 Y1.7556
G1 X3.5743 Y1.7605
G1 X3.5771 Y1.7657
G1 X3.5794 Y1.7711
G1 X3.5812 Y1.7767
G1 X3.5826 Y1.7825
G1 X3.5834 Y1.7883
G1 X3.5837 Y1.7942
G1 X3.5835 Y1.8001
G1 X3.5827 Y1.806
G1 X3.5815 Y1.8118
G1 X3.5803 Y1.8158
G1 X3.5796 Y1.8176
G1 X3.5789 Y1.8195
G1 X3.5777 Y1.8224
G1 X3.5775 Y1.8228
G1 X3.5664 Y1.8372
G1 X3.5658 Y1.8378
G1 X3.5516 Y1.8487
G1 X3.5512 Y1.8489
G1 X3.5346 Y1.8557
G1 X3.5341 Y1.8559
G1 X3.5166 Y1.8582
G1 X3.5159 Y1.8583
G1 X3.4982 Y1.8559
G1 X3.4974 Y1.8558
G1 X3.4803 Y1.8487
G1 X3.4658 Y1.8376
G1 X3.4653 Y1.837
G1 X3.4544 Y1.8228
G1 X3.4542 Y1.8224
G1 X3.4473 Y1.8058
G1 X3.4472 Y1.8054
G1 X3.4448 Y1.7872
G1 Y1.7868
G1 X3.4472 Y1.769
G1 Y1.7686
G1 X3.4542 Y1.7517
G1 X3.4545 Y1.7512
G1 X3.4653 Y1.7372
G1 X3.4658 Y1.7367
G1 X3.4803 Y1.7255
G1 X3.4918 Y1.7208
G1 X3.4973 Y1.7185
G1 X3.498 Y1.7183
G1 X3.5153 Y1.716
G1 X3.516
G1 X3.5339 Y1.7183
G1 X3.5345 Y1.7184
G1 X3.5512 Y1.7253
G1 X3.5516 Y1.7256
G1 X3.5658 Y1.7364
G1 X3.5664 Y1.737
G1 X3.5774 Y1.7512
G1 X3.5776 Y1.7517
G1 X3.5846 Y1.7686
G1 X3.5848 Y1.7699
G1 X3.5871 Y1.7868
G1 Y1.7872
G1 X3.5847 Y1.8054
G1 X3.5844 Y1.8063
G1 X3.5789 Y1.8195
G1 X3.5775 Y1.8221
G1 X3.5758 Y1.8245
G1 X3.5736 Y1.8265 Z-0.236
G1 X3.5714 Y1.8285 Z-0.2355
G1 X3.5693 Y1.8304 Z-0.2346
G1 X3.5663 Y1.8316 Z-0.2331
G1 X3.5636 Y1.8326 Z-0.2312
G1 X3.5611 Y1.8336 Z-0.2289
G1 X3.5592 Y1.8338 Z-0.2267
G1 X3.5575 Y1.834 Z-0.2243
G1 X3.5562 Y1.8341 Z-0.2218
G1 X3.5549 Y1.834 Z-0.2184
G1 X3.5541 Z-0.2148
G1 X3.5538 Z-0.2112
G0 Z0.1969
G0 X3.516 Y1.7871
G0 Z-0.1378
G1 Z-0.315 F10.9
G1 X3.5171 Y1.7862 F32.8
G1 X3.5178 Y1.7875
G1 X3.5171 Y1.7889
G1 X3.5158 Y1.7894
G1 X3.5144 Y1.789
G1 X3.5135 Y1.7878
G1 X3.5132 Y1.7864
G1 X3.5134 Y1.7849
G1 X3.5142 Y1.7837
G1 X3.5154 Y1.7828
G1 X3.5168 Y1.7824
G1 X3.5183 Y1.7825
G1 X3.5197 Y1.7829
G1 X3.5221 Y1.7846
G1 X3.5235 Y1.7872
G1 X3.5236 Y1.7902
G1 X3.5226 Y1.793
G1 X3.5208 Y1.7953
G1 X3.5183 Y1.7968
G1 X3.5154 Y1.7976
G1 X3.5095 Y1.7973
G1 X3.5045 Y1.7942
G1 X3.5013 Y1.7892
G1 X3.5004 Y1.7834
G1 X3.5016 Y1.7776
G1 X3.5047 Y1.7726
G1 X3.5093 Y1.7688
G1 X3.5147 Y1.7665
G1 X3.5206 Y1.7659
G1 X3.5264 Y1.7668
G1 X3.5318 Y1.7691
G1 X3.5365 Y1.7728
G1 X3.5401 Y1.7774
G1 X3.5426 Y1.7828
G1 X3.5439 Y1.7885
G1 Y1.7944
G1 X3.5427 Y1.8002
G1 X3.5404 Y1.8056
G1 X3.5371 Y1.8105
G1 X3.533 Y1.8148
G1 X3.5281 Y1.8181
G1 X3.5228 Y1.8207
G1 X3.5171 Y1.8223
G1 X3.5112 Y1.8228
G1 X3.5053 Y1.8225
G1 X3.4996 Y1.8212
G1 X3.4941 Y1.8191
G1 X3.4889 Y1.8161
G1 X3.4843 Y1.8124
G1 X3.4803 Y1.8081
G1 X3.4769 Y1.8033
G1 X3.4742 Y1.798
G1 X3.4723 Y1.7924
G1 X3.4711 Y1.7866
G1 X3.4707 Y1.7808
G1 X3.4711 Y1.7749
G1 X3.4722 Y1.7691
G1 X3.474 Y1.7634
G1 X3.4766 Y1.7581
G1 X3.4797 Y1.7531
G1 X3.4834 Y1.7485
G1 X3.4876 Y1.7443
G1 X3.4922 Y1.7407
G1 X3.4973 Y1.7376
G1 X3.5026 Y1.7351
G1 X3.5082 Y1.7332
G1 X3.5139 Y1.7319
G1 X3.5198 Y1.7312
G1 X3.5257 Y1.7311
G1 X3.5316 Y1.7317
G1 X3.5374 Y1.7329
G1 X3.543 Y1.7346
G1 X3.5485 Y1.7369
G1 X3.5537 Y1.7397
G1 X3.5585 Y1.7431
G1 X3.5631 Y1.7468
G1 X3.5672 Y1.751
G1 X3.571 Y1.7556
G1 X3.5743 Y1.7605
G1 X3.5771 Y1.7657
G1 X3.5794 Y1.7711
G1 X3.5812 Y1.7767
G1 X3.5826 Y1.7825
G1 X3.5834 Y1.7883
G1 X3.5837 Y1.7942
G1 X3.5835 Y1.8001
G1 X3.5827 Y1.806
G1 X3.5815 Y1.8118
G1 X3.5803 Y1.8158
G1 X3.5796 Y1.8176
G1 X3.5789 Y1.8195
G1 X3.5777 Y1.8224
G1 X3.5775 Y1.8228
G1 X3.5664 Y1.8372
G1 X3.5658 Y1.8378
G1 X3.5516 Y1.8487
G1 X3.5512 Y1.8489
G1 X3.5346 Y1.8557
G1 X3.5341 Y1.8559
G1 X3.5166 Y1.8582
G1 X3.5159 Y1.8583
G1 X3.4982 Y1.8559
G1 X3.4974 Y1.8558
G1 X3.4803 Y1.8487
G1 X3.4658 Y1.8376
G1 X3.4653 Y1.837
G1 X3.4544 Y1.8228
G1 X3.4542 Y1.8224
G1 X3.4473 Y1.8058
G1 X3.4472 Y1.8054
G1 X3.4448 Y1.7872
G1 Y1.7868
G1 X3.4472 Y1.769
G1 Y1.7686
G1 X3.4542 Y1.7517
G1 X3.4545 Y1.7512
G1 X3.4653 Y1.7372
G1 X3.4658 Y1.7367
G1 X3.4803 Y1.7255
G1 X3.4918 Y1.7208
G1 X3.4973 Y1.7185
G1 X3.498 Y1.7183
G1 X3.5153 Y1.716
G1 X3.516
G1 X3.5339 Y1.7183
G1 X3.5345 Y1.7184
G1 X3.5512 Y1.7253
G1 X3.5516 Y1.7256
G1 X3.5658 Y1.7364
G1 X3.5664 Y1.737
G1 X3.5774 Y1.7512
G1 X3.5776 Y1.7517
G1 X3.5846 Y1.7686
G1 X3.5848 Y1.7699
G1 X3.5871 Y1.7868
G1 Y1.7872
G1 X3.5847 Y1.8054
G1 X3.5844 Y1.8063
G1 X3.5789 Y1.8195
G1 X3.5775 Y1.8221
G1 X3.5758 Y1.8245
G1 X3.5736 Y1.8265 Z-0.3148
G1 X3.5714 Y1.8285 Z-0.3142
G1 X3.5693 Y1.8304 Z-0.3133
G1 X3.5663 Y1.8316 Z-0.3119
G1 X3.5636 Y1.8326 Z-0.3099
G1 X3.5611 Y1.8336 Z-0.3076
G1 X3.5592 Y1.8338 Z-0.3055
G1 X3.5575 Y1.834 Z-0.3031
G1 X3.5562 Y1.8341 Z-0.3005
G1 X3.5549 Y1.834 Z-0.2971
G1 X3.5541 Z-0.2936
G1 X3.5538 Z-0.29
G0 Z0.1969
G0 X3.516 Y1.7871
G0 Z-0.2165
G1 Z-0.3937 F10.9
G1 X3.5171 Y1.7862 F32.8
G1 X3.5178 Y1.7875
G1 X3.5171 Y1.7889
G1 X3.5158 Y1.7894
G1 X3.5144 Y1.789
G1 X3.5135 Y1.7878
G1 X3.5132 Y1.7864
G1 X3.5134 Y1.7849
G1 X3.5142 Y1.7837
G1 X3.5154 Y1.7828
G1 X3.5168 Y1.7824
G1 X3.5183 Y1.7825
G1 X3.5197 Y1.7829
G1 X3.5221 Y1.7846
G1 X3.5235 Y1.7872
G1 X3.5236 Y1.7902
G1 X3.5226 Y1.793
G1 X3.5208 Y1.7953
G1 X3.5183 Y1.7968
G1 X3.5154 Y1.7976
G1 X3.5095 Y1.7973
G1 X3.5045 Y1.7942
G1 X3.5013 Y1.7892
G1 X3.5004 Y1.7834
G1 X3.5016 Y1.7776
G1 X3.5047 Y1.7726
G1 X3.5093 Y1.7688
G1 X3.5147 Y1.7665
G1 X3.5206 Y1.7659
G1 X3.5264 Y1.7668
G1 X3.5318 Y1.7691
G1 X3.5365 Y1.7728
G1 X3.5401 Y1.7774
G1 X3.5426 Y1.7828
G1 X3.5439 Y1.7885
G1 Y1.7944
G1 X3.5427 Y1.8002
G1 X3.5404 Y1.8056
G1 X3.5371 Y1.8105
G1 X3.533 Y1.8148
G1 X3.5281 Y1.8181
G1 X3.5228 Y1.8207
G1 X3.5171 Y1.8223
G1 X3.5112 Y1.8228
G1 X3.5053 Y1.8225
G1 X3.4996 Y1.8212
G1 X3.4941 Y1.8191
G1 X3.4889 Y1.8161
G1 X3.4843 Y1.8124
G1 X3.4803 Y1.8081
G1 X3.4769 Y1.8033
G1 X3.4742 Y1.798
G1 X3.4723 Y1.7924
G1 X3.4711 Y1.7866
G1 X3.4707 Y1.7808
G1 X3.4711 Y1.7749
G1 X3.4722 Y1.7691
G1 X3.474 Y1.7634
G1 X3.4766 Y1.7581
G1 X3.4797 Y1.7531
G1 X3.4834 Y1.7485
G1 X3.4876 Y1.7443
G1 X3.4922 Y1.7407
G1 X3.4973 Y1.7376
G1 X3.5026 Y1.7351
G1 X3.5082 Y1.7332
G1 X3.5139 Y1.7319
G1 X3.5198 Y1.7312
G1 X3.5257 Y1.7311
G1 X3.5316 Y1.7317
G1 X3.5374 Y1.7329
G1 X3.543 Y1.7346
G1 X3.5485 Y1.7369
G1 X3.5537 Y1.7397
G1 X3.5585 Y1.7431
G1 X3.5631 Y1.7468
G1 X3.5672 Y1.751
G1 X3.571 Y1.7556
G1 X3.5743 Y1.7605
G1 X3.5771 Y1.7657
G1 X3.5794 Y1.7711
G1 X3.5812 Y1.7767
G1 X3.5826 Y1.7825
G1 X3.5834 Y1.7883
G1 X3.5837 Y1.7942
G1 X3.5835 Y1.8001
G1 X3.5827 Y1.806
G1 X3.5815 Y1.8118
G1 X3.5803 Y1.8158
G1 X3.5796 Y1.8176
G1 X3.5789 Y1.8195
G1 X3.5777 Y1.8224
G1 X3.5775 Y1.8228
G1 X3.5664 Y1.8372
G1 X3.5658 Y1.8378
G1 X3.5516 Y1.8487
G1 X3.5512 Y1.8489
G1 X3.5346 Y1.8557
G1 X3.5341 Y1.8559
G1 X3.5166 Y1.8582
G1 X3.5159 Y1.8583
G1 X3.4982 Y1.8559
G1 X3.4974 Y1.8558
G1 X3.4803 Y1.8487
G1 X3.4658 Y1.8376
G1 X3.4653 Y1.837
G1 X3.4544 Y1.8228
G1 X3.4542 Y1.8224
G1 X3.4473 Y1.8058
G1 X3.4472 Y1.8054
G1 X3.4448 Y1.7872
G1 Y1.7868
G1 X3.4472 Y1.769
G1 Y1.7686
G1 X3.4542 Y1.7517
G1 X3.4545 Y1.7512
G1 X3.4653 Y1.7372
G1 X3.4658 Y1.7367
G1 X3.4803 Y1.7255
G1 X3.4918 Y1.7208
G1 X3.4973 Y1.7185
G1 X3.498 Y1.7183
G1 X3.5153 Y1.716
G1 X3.516
G1 X3.5339 Y1.7183
G1 X3.5345 Y1.7184
G1 X3.5512 Y1.7253
G1 X3.5516 Y1.7256
G1 X3.5658 Y1.7364
G1 X3.5664 Y1.737
G1 X3.5774 Y1.7512
G1 X3.5776 Y1.7517
G1 X3.5846 Y1.7686
G1 X3.5848 Y1.7699
G1 X3.5871 Y1.7868
G1 Y1.7872
G1 X3.5847 Y1.8054
G1 X3.5844 Y1.8063
G1 X3.5789 Y1.8195
G1 X3.5775 Y1.8221
G1 X3.5758 Y1.8245
G1 X3.5736 Y1.8265 Z-0.3935
G1 X3.5714 Y1.8285 Z-0.393
G1 X3.5693 Y1.8304 Z-0.3921
G1 X3.5663 Y1.8316 Z-0.3906
G1 X3.5636 Y1.8326 Z-0.3887
G1 X3.5611 Y1.8336 Z-0.3864
G1 X3.5592 Y1.8338 Z-0.3842
G1 X3.5575 Y1.834 Z-0.3818
G1 X3.5562 Y1.8341 Z-0.3793
G1 X3.5549 Y1.834 Z-0.3759
G1 X3.5541 Z-0.3723
G1 X3.5538 Z-0.3687
G0 Z0.1969
G0 X3.516 Y1.7871
G0 Z-0.2953
G1 Z-0.4331 F10.9
G1 X3.5171 Y1.7862 F32.8
G1 X3.5178 Y1.7875
G1 X3.5171 Y1.7889
G1 X3.5158 Y1.7894
G1 X3.5144 Y1.789
G1 X3.5135 Y1.7878
G1 X3.5132 Y1.7864
G1 X3.5134 Y1.7849
G1 X3.5142 Y1.7837
G1 X3.5154 Y1.7828
G1 X3.5168 Y1.7824
G1 X3.5183 Y1.7825
G1 X3.5197 Y1.7829
G1 X3.5221 Y1.7846
G1 X3.5235 Y1.7872
G1 X3.5236 Y1.7902
G1 X3.5226 Y1.793
G1 X3.5208 Y1.7953
G1 X3.5183 Y1.7968
G1 X3.5154 Y1.7976
G1 X3.5095 Y1.7973
G1 X3.5045 Y1.7942
G1 X3.5013 Y1.7892
G1 X3.5004 Y1.7834
G1 X3.5016 Y1.7776
G1 X3.5047 Y1.7726
G1 X3.5093 Y1.7688
G1 X3.5147 Y1.7665
G1 X3.5206 Y1.7659
G1 X3.5264 Y1.7668
G1 X3.5318 Y1.7691
G1 X3.5365 Y1.7728
G1 X3.5401 Y1.7774
G1 X3.5426 Y1.7828
G1 X3.5439 Y1.7885
G1 Y1.7944
G1 X3.5427 Y1.8002
G1 X3.5404 Y1.8056
G1 X3.5371 Y1.8105
G1 X3.533 Y1.8148
G1 X3.5281 Y1.8181
G1 X3.5228 Y1.8207
G1 X3.5171 Y1.8223
G1 X3.5112 Y1.8228
G1 X3.5053 Y1.8225
G1 X3.4996 Y1.8212
G1 X3.4941 Y1.8191
G1 X3.4889 Y1.8161
G1 X3.4843 Y1.8124
G1 X3.4803 Y1.8081
G1 X3.4769 Y1.8033
G1 X3.4742 Y1.798
G1 X3.4723 Y1.7924
G1 X3.4711 Y1.7866
G1 X3.4707 Y1.7808
G1 X3.4711 Y1.7749
G1 X3.4722 Y1.7691
G1 X3.474 Y1.7634
G1 X3.4766 Y1.7581
G1 X3.4797 Y1.7531
G1 X3.4834 Y1.7485
G1 X3.4876 Y1.7443
G1 X3.4922 Y1.7407
G1 X3.4973 Y1.7376
G1 X3.5026 Y1.7351
G1 X3.5082 Y1.7332
G1 X3.5139 Y1.7319
G1 X3.5198 Y1.7312
G1 X3.5257 Y1.7311
G1 X3.5316 Y1.7317
G1 X3.5374 Y1.7329
G1 X3.543 Y1.7346
G1 X3.5485 Y1.7369
G1 X3.5537 Y1.7397
G1 X3.5585 Y1.7431
G1 X3.5631 Y1.7468
G1 X3.5672 Y1.751
G1 X3.571 Y1.7556
G1 X3.5743 Y1.7605
G1 X3.5771 Y1.7657
G1 X3.5794 Y1.7711
G1 X3.5812 Y1.7767
G1 X3.5826 Y1.7825
G1 X3.5834 Y1.7883
G1 X3.5837 Y1.7942
G1 X3.5835 Y1.8001
G1 X3.5827 Y1.806
G1 X3.5815 Y1.8118
G1 X3.5803 Y1.8158
G1 X3.5796 Y1.8176
G1 X3.5789 Y1.8195
G1 X3.5777 Y1.8224
G1 X3.5775 Y1.8228
G1 X3.5664 Y1.8372
G1 X3.5658 Y1.8378
G1 X3.5516 Y1.8487
G1 X3.5512 Y1.8489
G1 X3.5346 Y1.8557
G1 X3.5341 Y1.8559
G1 X3.5166 Y1.8582
G1 X3.5159 Y1.8583
G1 X3.4982 Y1.8559
G1 X3.4974 Y1.8558
G1 X3.4803 Y1.8487
G1 X3.4658 Y1.8376
G1 X3.4653 Y1.837
G1 X3.4544 Y1.8228
G1 X3.4542 Y1.8224
G1 X3.4473 Y1.8058
G1 X3.4472 Y1.8054
G1 X3.4448 Y1.7872
G1 Y1.7868
G1 X3.4472 Y1.769
G1 Y1.7686
G1 X3.4542 Y1.7517
G1 X3.4545 Y1.7512
G1 X3.4653 Y1.7372
G1 X3.4658 Y1.7367
G1 X3.4803 Y1.7255
G1 X3.4918 Y1.7208
G1 X3.4973 Y1.7185
G1 X3.498 Y1.7183
G1 X3.5153 Y1.716
G1 X3.516
G1 X3.5339 Y1.7183
G1 X3.5345 Y1.7184
G1 X3.5512 Y1.7253
G1 X3.5516 Y1.7256
G1 X3.5658 Y1.7364
G1 X3.5664 Y1.737
G1 X3.5774 Y1.7512
G1 X3.5776 Y1.7517
G1 X3.5846 Y1.7686
G1 X3.5848 Y1.7699
G1 X3.5871 Y1.7868
G1 Y1.7872
G1 X3.5847 Y1.8054
G1 X3.5844 Y1.8063
G1 X3.5789 Y1.8195
G3 X3.5538 Y1.834 I-0.0227 J-0.0104
G1 X3.5499 Y1.8336 Z-0.4328
G1 X3.5461 Y1.8333 Z-0.4318
G1 X3.5425 Y1.8329 Z-0.4303
G1 X3.5392 Y1.8326 Z-0.4283
G1 X3.5362 Y1.8323 Z-0.4257
G1 X3.5337 Y1.8321 Z-0.4228
G1 X3.5316 Y1.8319 Z-0.4194
G1 X3.5301 Y1.8318 Z-0.4158
G1 X3.5292 Y1.8317 Z-0.412
G1 X3.5289 Z-0.4081
G0 Z0.5906
M5 M9

G30
M30
%
